!!!!SEGMENT: pl-sa--398-a-viii--001_luna-georgius--missa-solemnis-kyrie.krn
!!!cenid: 17xx:473
!!!COM: Luna, Georgius
!!!COM-rismid: pe41010079
!!!CDT:
!!!CNT:
!!!OPR: Missa Solemnis
!!!OTL: Kyrie
!!!OMV: 001
!!!PDT:
!!!AGN: Sacred; Mass
!!!SMS-siglum: PL-SA
!!!SMS-shelfmark: 398/A VIII
!!!SMS-shelfwork: 001-001 M
!!!SMS-variant:
!!!SMS-altvar:
!!!NIFC-rismid: 1001070172
!!!system-decoration: [(s1,s2)][(s3,s4,s5,s6)][(s7,s8)]s9
!!!key:
**kern	**fba	**kern	**dynam	**kern	**dynam	**kern	**text	**kern	**text	**dynam	**kern	**text	**kern	**text	**kern	**kern
*part9	*part9	*part8	*part8	*part7	*part7	*part6	*part6	*part5	*part5	*part5	*part4	*part4	*part3	*part3	*part2	*part1
*staff9	*staff9	*staff8	*	*staff7	*	*staff6	*staff6	*staff5	*staff5	*	*staff4	*staff4	*staff3	*staff3	*staff2	*staff1
*Iorgan	*	*Ivioln	*	*Ivioln	*	*Iempty	*	*Itenor	*	*	*Ialto	*	*Ivox	*	*Iempty	*Iempty
*I"Organo.	*	*I"Violino Secundo.	*	*I"Violino Primo.	*	*I"Baſso.	*	*I"Tenore	*	*	*I"Alto.	*	*I"Canto.	*	*I"Clarino 2do. ex D	*I"Clarino 1mo.
*I'Org.	*	*I'V-no II	*	*I'V-no I	*	*I'B.	*	*I'T.	*	*	*I'A.	*	*I'C.	*	*I'Cl. II	*I'Cl. I
*clefF4	*	*clefG2	*	*clefG2	*	*clefF4	*	*clefC4	*	*	*clefC3	*	*clefC1	*	*clefG2	*clefG2
*	*	*	*	*	*	*	*	*	*	*	*	*	*	*	*ITrd-1c-2	*ITrd-1c-2
*k[f#c#]	*	*k[f#c#]	*	*k[f#c#]	*	*k[f#c#]	*	*k[f#c#]	*	*	*k[f#c#]	*	*k[f#c#]	*	*k[f#c#]	*k[f#c#]
*D:	*	*D:	*	*D:	*	*D:	*	*D:	*	*	*D:	*	*D:	*	*D:	*D:
*M4/4	*	*M4/4	*	*M4/4	*	*M4/4	*	*M4/4	*	*	*M4/4	*	*M4/4	*	*M4/4	*M4/4
*met(c)	*	*met(c)	*	*met(c)	*	*met(c)	*	*met(c)	*	*	*met(c)	*	*met(c)	*	*met(c)	*met(c)
=1	=1	=1	=1	=1	=1	=1	=1	=1	=1	=1	=1	=1	=1	=1	=1	=1
*	*	*	*	*2\right	*	*	*	*2\right	*	*	*2\right	*	*2\right	*	*2\right	*
!	!	!	!	!	!	!LO:TX:a:t=P:problem=wszystkie nuty mają caudy z prawej strony	!	!	!	!	!	!	!	!	!	!
!	!	!	!	!	!	!LO:SIC:o=K:v:t=w źródle 'K' znajduje się przed kluczem i oznaczeniem metrum	!	!LO:SIC:o=Kyrie:v:t=w źródle 'Kyrie' znajduje się przed kluczem i oznaczeniem metrum	!	!	!	!	!	!	!	!
!LO:SIC:o=Kyrie:v:t=w źródle 'Kyrie.' znajduje się przed kluczem i oznaczeniem metrum	!	!LO:SIC:o=Kyrie.:v:t=w źródle 'Kyrie.' znajduje się przed kluczem i oznaczeniem metrum	!	!LO:SIC:o=Kyrie:v:t=w źródle 'Kyrie' znajduje się przed kluczem i oznaczeniem metrum	!	!	!	!	!	!	!	!	!	!	!	!
!LO:TX:a:Bi:t=Adagio:rj	!	!LO:TX:a:B:t=Adagio	!	!LO:TX:a:Bi:t=Adagio	!	!LO:TX:a:Bi:t=Adagio	!	!	!	!	!LO:TX:a:Bi:t=Ada	!	!LO:TX:a:Bi:t=Ada	!	!LO:TX:a:Bi:t=Adagio:rj	!LO:TX:a:Bi:t=Adagio
!	!	!	!	!	!	!	!	!	!	!	!	!	!	!	!LO:TX:b:Bi:t=Kyrie:rj	!LO:TX:b:Bi:t=Kyrie:rj
!	!	!	!	!	!	!	!	!	!	!	!	!	!LO:TX:a:t=P:problem=w źródle nuta jest zamazana; przyjmuję 4.ff#	!	!	!
4.D\	.	4.ff#\	.	4.ddd\	.	4.D\	y-	4.d\	Ky-	.	4.a\	Ky-	4.ff#\	Ky-	4.ff#\	4.aa\
8D\	.	8ff#\	.	8ddd\	.	8D\	-ri-	8d\	-ri-	.	8a\	-ri-	8ff#\	-ri-	8ff#\	8aa\
4D\	.	16.ff#\LL	.	16.ddd\LL	.	4D\	-e	4d\	-e	.	4a\	-e	4ff#\	-e	4ff#\	4aa\
.	.	32aa\K	.	32aa\K	.	.	.	.	.	.	.	.	.	.	.	.
.	.	16.ff#\	.	16.ff#\	.	.	.	.	.	.	.	.	.	.	.	.
.	.	32dd\JJk	.	32dd\JJk	.	.	.	.	.	.	.	.	.	.	.	.
!	!	!LO:TX:a:t=P:problem=mixed beam	!	!LO:TX:a:t=P:problem=mixed beam	!	!	!	!	!	!	!	!	!	!	!	!
8r	.	16.a/LL	.	16.a/LL	.	8r	.	8r	.	.	8r	.	8r	.	8r	8r
.	.	32f#/K	.	32f#/K	.	.	.	.	.	.	.	.	.	.	.	.
8d\	.	16.d/	.	16.d/	.	8d\	e-	8f#\	e-	.	8a\	Ky-	8aa\	e-	8ff#\	8aa\
.	.	32ff#\JJk	.	32aa\JJk	.	.	.	.	.	.	.	.	.	.	.	.
=2	=2	=2	=2	=2	=2	=2	=2	=2	=2	=2	=2	=2	=2	=2	=2	=2
4c#\	.	4ee\	.	4gg\	.	4c#\	.	4e\	-lei-	.	2a\	-ri-	4gg\	-le-	4ee\	4gg\
4d\	.	4dd\	.	4ff#t>\	.	4d\	-lei-	4d\	.	.	.	.	4ff#\	-i-	4dd\	4ff#\
4A\	.	16.cc#/LL	.	16.ee\LL	.	4A\	-son	4c#\	-son	.	4a\	-e	4ee\	-son	4a/	4ee\
.	.	32a/K	.	32cc#\K	.	.	.	.	.	.	.	.	.	.	.	.
.	.	16.e/	.	16.a\	.	.	.	.	.	.	.	.	.	.	.	.
.	.	32c#/JJk	.	32e\JJk	.	.	.	.	.	.	.	.	.	.	.	.
!	!	!LO:TX:a:t=P:problem=mixed beam	!	!LO:TX:a:t=P:problem=mixed beam	!	!	!	!	!	!	!	!	!	!	!	!
8r	.	16.A/LL	.	16.c#/LL	.	8r	.	8r	.	.	8r	.	8r	.	8r	8r
.	.	32cc#\K	.	32A/K	.	.	.	.	.	.	.	.	.	.	.	.
8A\	.	16.ee\	.	16.gg\	.	(>8A\	e-	8c#\	e-	.	8a\	e-	8ee\	e-	8a/	8ee\
.	.	32cc#\JJk	.	32ee\JJk	.	.	.	.	.	.	.	.	.	.	.	.
=3	=3	=3	=3	=3	=3	=3	=3	=3	=3	=3	=3	=3	=3	=3	=3	=3
8d\L	.	16.a\LL	.	16.ff#\LL	.	8d\L)	.	4d\	-lei-	.	(>8a\L	-lei-	(>8ff#\L	-le-	8dd\L	8ff#\L
.	.	32dd\K	.	32dd\K	.	.	.	.	.	.	.	.	.	.	.	.
8d\	7	16.bb\	.	16.bb\	.	8d\J	.	.	.	.	8b\J)	.	8gg#X\J)	-i	8ee\	16ee\L
.	.	.	.	.	.	.	.	.	.	.	.	.	.	.	.	16ee\JJ
.	.	32gg#X\JJk	.	32gg#X\JJk	.	.	.	.	.	.	.	.	.	.	.	.
!	!	!LO:TX:a:t=P:problem=mixed beam	!	!LO:TX:a:t=P:problem=mixed beam	!	!	!	!	!	!	!	!	!	!	!	!
8c#\	6	16.aa\LL	.	16.aa\LL	.	8c#\	-lei-	8e\	-son	.	8cc#\	-son	8aa\	son	8a\	8ee\L
.	.	32a/K	.	32a/K	.	.	.	.	.	.	.	.	.	.	.	.
8A\J	.	16.cc#/	.	16.cc#/	.	8A\	-son	8c#\	e-	.	8a\	.	8ee\	e-	8a\J	8ee\J
.	.	32ee/JJk	.	32ee/JJk	.	.	.	.	.	.	.	.	.	.	.	.
!LO:TX:a:t=P:problem=mixed beam	!	!	!	!	!	!	!	!	!	!	!	!	!	!	!	!
8d\L	3	16.ff#\LL	.	16.ff#\LL	.	(>8d\	.	4d\	-lei-	.	(>8a\L	.	(>8ff#\L	-le-	8a\L	8ff#\L
.	.	32dd\K	.	32dd\K	.	.	.	.	.	.	.	.	.	.	.	.
8D/	+4r	16.bb\	.	16.bb\	.	8D/)	e-	.	.	.	8b\J)	.	8gg#X\J)	-i-	16ee\L	16.ee\L
.	.	.	.	.	.	.	.	.	.	.	.	.	.	.	16ee\JJ	.
.	.	32gg#X\JJk	.	32gg#X\JJk	.	.	.	.	.	.	.	.	.	.	.	32ee\JJk
8C#/	6	16.aa\LL	.	16.aa\LL	.	8C#/	-lei-	8e\	-son	.	8cc#\	.	8aa\	-son	8ee\L	8ee\L
.	.	32ee\K	.	32ee\K	.	.	.	.	.	.	.	.	.	.	.	.
8AA/J	.	16.cc#\	.	16.cc#\	.	8BB/	-son	8e\	e-	.	8cc#\	e-	8ee\	e-	8ee\J	8aa\J
.	.	32a\JJk	.	32a\JJk	.	.	.	.	.	.	.	.	.	.	.	.
=4	=4	=4	=4	=4	=4	=4	=4	=4	=4	=4	=4	=4	=4	=4	=4	=4
4E\	6 x	4e/	.	4e/	.	4E\	e-	2e\	-lei-	.	(>4a\	-lei-	(>4cc#\	-lei-	2ee\	4aa\
4EE/	5 #	4bT>\	.	4bT>/	.	4EE/	-lei-	.	.	.	4g#X\)	.	4b\)	.	.	4gg#X\
!	!	!	!	!LO:LB:g=original	!	!	!	!	!	!	!	!	!	!	!	!
!	!	!	!	!	!LO:DY:a:t=%sio	!	!	!	!	!	!	!	!	!	!	!
4AA/	.	8a/L	.	8a/L	p	4AA/	-son	4e\	-son	.	4a\	-son	4a\	-son	4ee\	4aa\
.	.	8A/	.	8A/	.	.	.	.	.	.	.	.	.	.	.	.
4r	.	8A/	.	8A/	.	4r	.	4r	.	.	8a\	Ky-	8cc#\	Ky-	4r	4r
.	.	8A/J	.	8A/J	.	.	.	.	.	.	8b\	-rie	8dd\	-ri-	.	.
!	!	!	!	!	!	!	!	!LO:TX:a:t=P:problem=w źródle brakuje kreski taktowej	!	!	!	!	!	!	!	!
!	!	!	!	!	!	!	!	!LO:LB:g=original	!	!	!	!	!	!	!	!
=5	=5	=5	=5	=5	=5	=5	=5	=5	=5	=5	=5	=5	=5	=5	=5	=5
2r	.	4A/	.	4A/	.	2r	.	2r	.	.	8cc#\	.	8ee\	-e	2r	2r
.	.	.	.	.	.	.	.	.	.	.	8cc#\	e-	8ee\	e-	.	.
.	.	4r	.	4r	.	.	.	.	.	.	(>8cc#\L	-lei-	8ee\L	-lei-	.	.
.	.	.	.	.	.	.	.	.	.	.	8dd\J)	.	8ff#\J	.	.	.
!	!	!	!	!	!	!	!	!	!	!	!LO:LB:g=original	!	!LO:LB:g=original	!	!	!
8r	.	16.r	.	16.r	.	8r	.	8r	.	.	4ee\	.	4ggn\	.	8r	8r
.	.	32a\KLL	.	32a\KLL	.	.	.	.	.	.	.	.	.	.	.	.
8A\	.	16.cc#\	.	16.cc#\	.	8A\	e-	8c#\	e-	.	.	.	.	.	8ee\	8gg\
.	.	32ee\JJk	.	32ee\JJk	.	.	.	.	.	.	.	.	.	.	.	.
!	!	!LO:LB:g=original	!	!	!	!	!	!	!	!	!	!	!	!	!	!
!	!	!	!	!	!	!	!	!	!	!	!	!	!LO:TX:a:B:t=t	!	!	!
8d\L	.	16.ff#\LL	.	16.ff#\LL	.	(>8d\L	-lei-	8A\L	-lei-	.	4dd\	.	4ff#\	.	4dd\	4ff#\
.	.	32dd\K	.	32dd\K	.	.	.	.	.	.	.	.	.	.	.	.
8G#X\J	7	16.bb\	.	16.bb\	.	8G#X\J)	.	8B\J	.	.	.	.	.	.	.	.
.	.	32dd\JJk	.	32dd\JJk	.	.	.	.	.	.	.	.	.	.	.	.
!	!	!	!	!	!	!LO:LB:g=original	!	!	!	!	!	!	!	!	!	!
=6	=6	=6	=6	=6	=6	=6	=6	=6	=6	=6	=6	=6	=6	=6	=6	=6
8A\L	3 x	16.cc#\LL	.	16.cc#\LL	.	8A\	-son	8c#\L	.	.	8cc#\L	.	8ee\L	.	4a/	4ee\
.	.	32a\K	.	32a\K	.	.	.	.	.	.	.	.	.	.	.	.
8Gn\	4 x	16.ee\	.	16.ee\	.	8Gn\	Ky-	8e\J	.	.	8a\J	.	8cc#\J	.	.	.
.	.	32cc#\JJk	.	32cc#\JJk	.	.	.	.	.	.	.	.	.	.	.	.
!	!	!LO:TX:a:t=P:problem=mixed beam	!	!	!	!	!	!	!	!	!	!	!	!	!	!
8F#\	6 x	8dd\L	.	8dd\L	.	8F#\	-ri-	8d\	-son	.	8a\	-son	8dd\	-son	8dd\L	8aa\L
8G\J	3 x	8e/J	.	8g\J	.	8G\	-e	8B\	e-	.	(>16b\LL	e-	8ee\	e-	8ee\J	8gg\J
.	.	.	.	.	.	.	.	.	.	.	16g\JJ)	.	.	.	.	.
4A\	6 4	4d/	.	4f#/	.	(>4A\	e-	2A\	-lei-	.	4f#\	-le-	(>4dd\	.	4dd\	4ff#\
4AA/	5 3	4c#/	.	4eT>/	.	4AA/)	-lei-	.	.	.	4e\	-i-	4cc#\)	-lei-	4a\	4ee\
!LO:LB:g=original	!	!	!	!	!	!	!	!	!	!	!	!	!	!	!	!
=7	=7	=7	=7	=7	=7	=7	=7	=7	=7	=7	=7	=7	=7	=7	=7	=7
!	!	!LO:TX:a:t=P:problem=mixed beam	!	!LO:TX:a:t=P:problem=mixed beam	!	!	!	!	!	!	!	!	!	!	!	!
4D\	.	16.d/LL	.	16.d/LL	.	4D\	-son	(<4A\	.	.	8f#\	.	8dd\	-son	4f#/	4dd\
.	.	32ff#\K	.	32aa\K	.	.	.	.	.	.	.	.	.	.	.	.
.	.	16.dd\	.	16.ff#\	.	.	.	.	.	.	4f#\	.	4dd\	e-	.	.
.	.	32a\JJk	.	32dd\JJk	.	.	.	.	.	.	.	.	.	.	.	.
4D\	.	16.f#/LL	.	16.a/LL	.	4D\	e-	4D/)	.	.	.	.	.	.	8r	8r
.	.	32d/K	.	32f#/K	.	.	.	.	.	.	.	.	.	.	.	.
.	.	16.f#/	.	16.d/	.	.	.	.	.	.	8a\	.	8ccn\	-lei-	8d/	8d/
.	.	32a/JJk	.	32ccn/JJk	.	.	.	.	.	.	.	.	.	.	.	.
4r	.	2g/	.	2bt>\	.	2GG/	-lei-	2D/	.	.	2g\	.	2b\	.	8d/L	8d/L
.	.	.	.	.	.	.	.	.	.	.	.	.	.	.	16d/L	16d/L
.	.	.	.	.	.	.	.	.	.	.	.	.	.	.	16d/JJ	16d/JJ
4GG/	.	.	.	.	.	.	.	.	.	.	.	.	.	.	8d/L	8d/L
.	.	.	.	.	.	.	.	.	.	.	.	.	.	.	8d/J	8d/J
=8	=8	=8	=8	=8	=8	=8	=8	=8	=8	=8	=8	=8	=8	=8	=8	=8
1D	.	1f#;>	.	1a;>	.	1AA	-son	1D	-son	.	1f#	-son	1a	-son	1d	1d;>
!	!	!LO:LB:g=original	!	!LO:LB:g=original	!	!	!	!	!	!	!	!	!	!	!LO:LB:g=original	!LO:LB:g=original
=9||	=9||	=9||	=9||	=9||	=9||	=9||	=9||	=9||	=9||	=9||	=9||	=9||	=9||	=9||	=9||	=9||
*	*	*k[f#c#]	*	*k[f#c#]	*	*	*	*	*	*	*	*	*k[f#c#]	*	*	*
*M4/4	*	*M4/4	*	*M4/4	*	*	*	*	*	*	*	*	*M4/4	*	*	*
*met(c)	*	*met(c)	*	*met(c)	*	*	*	*	*	*	*	*	*met(c)	*	*	*
!	!	!	!	!	!	!LO:TX:a:Bi:t=Christe Tacet	!	!LO:TX:a:Bi:t=Christe Tacet	!	!	!LO:TX:a:Bi:t=Christe Tacet	!	!	!	!LO:TX:a:Bi:t=Christe Tacet	!LO:TX:a:Bi:t=Christe Tacet
!LO:TX:a:Bi:t=And(an)te	!	!LO:TX:a:Bi:t=Andante	!	!LO:TX:a:Bi:t=And(an)te	!	!	!	!	!	!	!	!	!	!	!	!
!LO:TX:b:Bi:t=Christe:rj	!	!LO:TX:b:Bi:t=Christe	!	!LO:TX:b:Bi:t=Christe:rj	!	!	!	!	!	!	!	!	!LO:TX:a:Bi:t=2:rj	!	!	!
8r	.	8dd\	.	8ff#\	.	1ryy	.	1ryy	.	.	1ryy	.	8ff#\	Chri-	1ryy	1ryy
!LO:TX:a:t=P:problem=mixed beam	!	!	!	!	!	!	!	!	!	!	!	!	!	!	!	!
8B\L	.	4dd\	.	4ee\	.	.	.	.	.	.	.	.	4ff#\	-ste	.	.
8BB/	.	.	.	.	.	.	.	.	.	.	.	.	.	.	.	.
8B\J	.	(>16cc#\LL	.	16ee\LL	.	.	.	.	.	.	.	.	(>16ee\LL	e-	.	.
.	.	16b\JJ)	.	16dd\JJ	.	.	.	.	.	.	.	.	16dd\JJ)	.	.	.
!	!	!	!LO:DY:a:t=%sio	!	!LO:DY:a:t=%sio	!	!	!	!	!	!	!	!	!	!	!
8r	.	8cc#\	p	8ee\	p	.	.	.	.	.	.	.	8ee\	-lei-	.	.
!LO:TX:a:t=P:problem=mixed beam	!	!	!	!	!	!	!	!	!	!	!	!	!	!	!	!
8F#\L	#	4cc#\	.	4ee\	.	.	.	.	.	.	.	.	4ee\	.	.	.
8FF#/	.	.	.	.	.	.	.	.	.	.	.	.	.	.	.	.
8F#\J	.	(>16b\LL	.	16dd\LL	.	.	.	.	.	.	.	.	(>16dd\LL	.	.	.
.	.	16a#X\JJ)	.	16cc#\JJ	.	.	.	.	.	.	.	.	16cc#\JJ)	.	.	.
=10	=10	=10	=10	=10	=10	=10	=10	=10	=10	=10	=10	=10	=10	=10	=10	=10
8r	.	8.b\L	.	8.ddT>\L	.	1ryy	.	1ryy	.	.	1ryy	.	(>8.dd\L	.	1ryy	1ryy
8BB/L	.	.	.	.	.	.	.	.	.	.	.	.	.	.	.	.
.	.	(>32cc#\LL	.	(>32ee\LL	.	.	.	.	.	.	.	.	32ee\LL	.	.	.
.	.	32dd\JJJ)	.	32ff#\JJJ)	.	.	.	.	.	.	.	.	32ff#\JJJ)	.	.	.
8E/	6	8cc#\L	.	8ee\L	.	.	.	.	.	.	.	.	8ee\	-son	.	.
8E#X/J	7	8b\J	.	8dd\J	.	.	.	.	.	.	.	.	8dd\	e-	.	.
.	.	8qqb/	.	8qqdd/	.	.	.	.	.	.	.	.	8qqdd/	.	.	.
8F#\L	n3	8a#X/L	.	8cc#\L	.	.	.	.	.	.	.	.	8cc#\	-lei-	.	.
16C#\L	.	8b/J	.	8b\J	.	.	.	.	.	.	.	.	8b\	-son	.	.
16B\JJ	.	.	.	.	.	.	.	.	.	.	.	.	.	.	.	.
16A\LL	.	4r	.	4r	.	.	.	.	.	.	.	.	4r	.	.	.
16G\	.	.	.	.	.	.	.	.	.	.	.	.	.	.	.	.
16F#\	.	.	.	.	.	.	.	.	.	.	.	.	.	.	.	.
16E#\JJ	.	.	.	.	.	.	.	.	.	.	.	.	.	.	.	.
=11	=11	=11	=11	=11	=11	=11	=11	=11	=11	=11	=11	=11	=11	=11	=11	=11
!LO:TX:a:t=P:problem=mixed beam	!	!	!	!	!	!	!	!	!	!	!	!	!	!	!	!
8D/L	.	8ff#\	.	8aa\	.	1ryy	.	1ryy	.	.	1ryy	.	8aa\	Chri-	1ryy	1ryy
!	!	!	!	!	!	!	!	!	!	!	!	!	!LO:LB:g=original	!	!	!
8d\	.	4ff#\	.	4aa\	.	.	.	.	.	.	.	.	4aa\	-ste	.	.
8D/	.	.	.	.	.	.	.	.	.	.	.	.	.	.	.	.
!	!	!	!	!	!	!	!	!	!	!	!	!	!LO:SIC:l:s=e-:v	!	!	!
8d\J	.	(>16ee\LL	.	16gg\LL	.	.	.	.	.	.	.	.	(>16gg\LL	.	.	.
.	.	16dd\JJ)	.	16ff#\JJ	.	.	.	.	.	.	.	.	16ff#\JJ)	.	.	.
8r	.	8ee\	.	8gg\	.	.	.	.	.	.	.	.	8gg\	-lei-	.	.
!LO:TX:a:t=P:problem=mixed beam	!	!	!	!	!	!	!	!	!	!	!	!	!	!	!	!
!	!	!	!	!	!	!	!	!	!	!	!	!	!LO:N:vis=4.	!	!	!
8C#/L	6\ 5	4ee\	.	4gg\	.	.	.	.	.	.	.	.	4gg\	.	.	.
8AA/	.	.	.	.	.	.	.	.	.	.	.	.	.	.	.	.
8F#\J	.	(>16dd\LL	.	16ff#\LL	.	.	.	.	.	.	.	.	16ff#\LL	.	.	.
.	.	16cc#\JJ)	.	16ee\JJ	.	.	.	.	.	.	.	.	16ee\JJ	.	.	.
=12	=12	=12	=12	=12	=12	=12	=12	=12	=12	=12	=12	=12	=12	=12	=12	=12
*	*	*Xtuplet	*	*Xtuplet	*	*	*	*	*	*	*	*	*	*	*	*
!	!	!	!	!	!	!	!	!	!	!	!	!	!LO:N:vis=8	!	!	!
8r	.	8.dd\L	.	8.ff#t>\L	.	1ryy	.	1ryy	.	.	1ryy	.	8.ff#\L	.	1ryy	1ryy
8D\L	3	.	.	.	.	.	.	.	.	.	.	.	.	.	.	.
.	5	(>32ee\LL	.	(>32gg\LL	.	.	.	.	.	.	.	.	32gg\LL	.	.	.
.	.	32ff#\JJJ)	.	32aa\JJJ)	.	.	.	.	.	.	.	.	32aa\JJJ	.	.	.
8C#\	.	8ee\L	.	8gg\L	.	.	.	.	.	.	.	.	8gg\L	.	.	.
8D\J	.	8dd\J	.	8ff#\J	.	.	.	.	.	.	.	.	8ff#\J	.	.	.
.	.	8qqdd/	.	8qqff#/	.	.	.	.	.	.	.	.	8qqff#/	.	.	.
!LO:TX:a:t=P:problem=mixed beam	!	!	!	!	!	!	!	!	!	!	!	!	!	!	!	!
8A\L	.	4cc#\	.	4ee\	.	.	.	.	.	.	.	.	4ee\	-son	.	.
8AA/J	.	.	.	.	.	.	.	.	.	.	.	.	.	.	.	.
!	!	!	!	!	!LO:DY:a	!	!	!	!	!	!	!	!	!	!	!
4r	.	(>24a\LL	.	(>24a\LL	f	.	.	.	.	.	.	.	4r	.	.	.
.	.	24b\	.	24b\	.	.	.	.	.	.	.	.	.	.	.	.
.	.	24cc#\JJ)	.	24cc#\JJ)	.	.	.	.	.	.	.	.	.	.	.	.
.	.	(>24cc#\LL	.	(>24cc#\LL	.	.	.	.	.	.	.	.	.	.	.	.
.	.	24dd\	.	24dd\	.	.	.	.	.	.	.	.	.	.	.	.
.	.	24ee\JJ)	.	24ee\JJ)	.	.	.	.	.	.	.	.	.	.	.	.
=13	=13	=13	=13	=13	=13	=13	=13	=13	=13	=13	=13	=13	=13	=13	=13	=13
!	!	!	!	!LO:TX:a:t=P:problem=mixed beam	!	!	!	!	!	!	!	!	!	!	!	!
!	!	!	!LO:DY:a	!	!LO:DY:a	!	!	!	!	!	!	!	!	!	!	!
8r	.	8a\L	p	8a/L	p	1ryy	.	1ryy	.	.	1ryy	.	8r	.	1ryy	1ryy
!LO:TX:a:t=P:problem=mixed beam	!	!	!	!	!	!	!	!	!	!	!	!	!	!	!	!
8A\L	5 3	8ee\	.	(>8gg\	.	.	.	.	.	.	.	.	8gg\	e-	.	.
8AA/	6 4	(>8dd\	.	8ff#\	.	.	.	.	.	.	.	.	(>8ff#\L	-le-	.	.
8A\J	5 3	8cc#\J)	.	8ee\J)	.	.	.	.	.	.	.	.	8ee\J)	-i-	.	.
!LO:LB:g=original	!	!LO:LB:g=original	!	!	!	!	!	!	!	!	!	!	!	!	!	!
.	.	8qqcc#/	.	8qqee/	.	.	.	.	.	.	.	.	8qqee/	.	.	.
!	!	!	!LO:DY:b	!	!	!	!	!	!	!	!	!	!	!	!	!
8r	.	4dd\	f	4ff#\	.	.	.	.	.	.	.	.	4ff#\	-son	.	.
!	!	!	!	!LO:LB:g=original	!	!	!	!	!	!	!	!	!	!	!	!
!LO:TX:a:t=P:problem=mixed beam	!	!	!	!	!	!	!	!	!	!	!	!	!	!	!	!
8A\L	6_ 4_	.	.	.	.	.	.	.	.	.	.	.	.	.	.	.
!	!	!	!	!	!LO:DY:a	!	!	!	!	!	!	!	!	!	!	!
8AA/	.	(>24a\LL	.	(>24a\LL	f	.	.	.	.	.	.	.	4r	.	.	.
.	.	24b\	.	24b\	.	.	.	.	.	.	.	.	.	.	.	.
.	.	24cc#\JJ)	.	24cc#\JJ)	.	.	.	.	.	.	.	.	.	.	.	.
8A\J	X X	(>24dd\LL	.	(>24dd\LL	.	.	.	.	.	.	.	.	.	.	.	.
.	.	24ee\	.	24ee\	.	.	.	.	.	.	.	.	.	.	.	.
.	.	24ff#\JJ)	.	24ff#\JJ)	.	.	.	.	.	.	.	.	.	.	.	.
=14	=14	=14	=14	=14	=14	=14	=14	=14	=14	=14	=14	=14	=14	=14	=14	=14
!	!	!LO:TX:a:t=P:problem=mixed beam	!	!LO:TX:a:t=P:problem=mixed beam	!	!	!	!	!	!	!	!	!	!	!	!
!	!	!	!LO:DY:b	!	!LO:DY:a:t=%s.	!	!	!	!	!	!	!	!	!	!	!
8r	.	8a/L	p	8a/L	p	1ryy	.	1ryy	.	.	1ryy	.	8r	.	1ryy	1ryy
!LO:TX:a:t=P:problem=mixed beam	!	!	!	!	!	!	!	!	!	!	!	!	!	!	!	!
8A\L	6 4	8ff#\	.	(>8aa\	.	.	.	.	.	.	.	.	8aa\	e-	.	.
8AA/	6\ 5	8ee\	.	8gg\	.	.	.	.	.	.	.	.	8gg\L	-le-	.	.
8A\J	6 4	8dd\J	.	8ff#\J)	.	.	.	.	.	.	.	.	8ff#\J	-i-	.	.
.	.	8qqdd/	.	8qqff#/	.	.	.	.	.	.	.	.	8qqff#/	.	.	.
!	!	!	!LO:DY:b	!	!	!	!	!	!	!	!	!	!	!	!	!
8r	.	4ee\	f	4gg'>\	.	.	.	.	.	.	.	.	4gg\	-son	.	.
!LO:TX:a:t=P:problem=mixed beam	!	!	!	!	!	!	!	!	!	!	!	!	!	!	!	!
8A\L	7_ 5_	.	.	.	.	.	.	.	.	.	.	.	.	.	.	.
!	!	!	!	!	!LO:DY:a	!	!	!	!	!	!	!	!	!	!	!
8AA/	.	(>24a\LL	.	(>24cc#\LL	f	.	.	.	.	.	.	.	4r	.	.	.
.	.	24b\	.	24dd\	.	.	.	.	.	.	.	.	.	.	.	.
.	.	24cc#\JJ)	.	24ee\JJ)	.	.	.	.	.	.	.	.	.	.	.	.
8A\J	X X	(>24cc#\LL	.	(>24ee\LL	.	.	.	.	.	.	.	.	.	.	.	.
.	.	24dd\	.	24ff#\	.	.	.	.	.	.	.	.	.	.	.	.
.	.	24ee\JJ)	.	24gg\JJ)	.	.	.	.	.	.	.	.	.	.	.	.
*	*	*	*	*tuplet	*	*	*	*	*	*	*	*	*	*	*	*
=15	=15	=15	=15	=15	=15	=15	=15	=15	=15	=15	=15	=15	=15	=15	=15	=15
!	!	!LO:TX:a:t=P:problem=mixed beam	!	!	!LO:DY:a	!	!	!	!	!	!	!	!	!	!	!
8r	.	8a/L	.	8cc#\L	p	1ryy	.	1ryy	.	.	1ryy	.	8r	.	1ryy	1ryy
!LO:TX:a:t=P:problem=mixed beam	!	!	!	!	!	!	!	!	!	!	!	!	!	!	!	!
8A\L	.	8gg\J	.	8bb\J	.	.	.	.	.	.	.	.	8bb\	e-	.	.
8AA/	.	(>16ff#\LL	.	(>16aa\LL	.	.	.	.	.	.	.	.	8aa\L	-lei-	.	.
.	.	16dd\	.	16ff#\)	.	.	.	.	.	.	.	.	.	.	.	.
!	!	!LO:TX:a:t=P:problem=w źródle kropka pod łukiem	!	!	!	!	!	!	!	!	!	!	!	!	!	!
8A\J	.	16ee\	.	(>16gg\	.	.	.	.	.	.	.	.	8gg\J	.	.	.
.	.	16cc#\JJ)	.	16ee\JJ)	.	.	.	.	.	.	.	.	.	.	.	.
8r	.	16dd\LL	.	16ff#\LL	.	.	.	.	.	.	.	.	16ff#\LL	.	.	.
.	.	16ee\JJ	.	16gg\JJ	.	.	.	.	.	.	.	.	16gg\JJ	.	.	.
8D\L	.	4ff#\	.	4aa\	.	.	.	.	.	.	.	.	4aa\	.	.	.
8F#\	6	.	.	.	.	.	.	.	.	.	.	.	.	.	.	.
8G\J	3	8ee\	.	8gg\	.	.	.	.	.	.	.	.	8gg\	.	.	.
=16	=16	=16	=16	=16	=16	=16	=16	=16	=16	=16	=16	=16	=16	=16	=16	=16
!LO:TX:a:t=P:problem=mixed beam	!	!	!	!	!	!	!	!	!	!	!	!	!	!	!	!
8A\L	6 4	4dd\	.	4ff#\	.	1ryy	.	1ryy	.	.	1ryy	.	4ff#\	.	1ryy	1ryy
8A\	.	.	.	.	.	.	.	.	.	.	.	.	.	.	.	.
8AA/	5 x	4cc#\	.	4eeT>\	.	.	.	.	.	.	.	.	4ee\	.	.	.
8AA/J	.	.	.	.	.	.	.	.	.	.	.	.	.	.	.	.
!	!	!	!LO:DY:b	!	!LO:DY:a	!	!	!	!	!	!	!	!	!	!	!
4D\	.	8dd\L	f	8dd\L	f	.	.	.	.	.	.	.	4dd\	-son	.	.
.	.	16aa\L	.	(>16aa\L	.	.	.	.	.	.	.	.	.	.	.	.
.	.	16ff#\JJ	.	16ff#\JJ)	.	.	.	.	.	.	.	.	.	.	.	.
8r	.	(>16cc#\LL	.	(>16cc#\LL	.	.	.	.	.	.	.	.	4r	.	.	.
.	.	16dd\)	.	16dd\)	.	.	.	.	.	.	.	.	.	.	.	.
8F#\	6 x	(>16a\	.	(>16a\	.	.	.	.	.	.	.	.	.	.	.	.
.	.	16ccn\JJ)	.	16ccn\JJ)	.	.	.	.	.	.	.	.	.	.	.	.
=17	=17	=17	=17	=17	=17	=17	=17	=17	=17	=17	=17	=17	=17	=17	=17	=17
!	!	!	!	!	!	!	!	!	!	!	!	!	!LO:TX:a:Bi:t=3	!	!	!
4G\	.	8b\L	.	8b\L	.	1ryy	.	1ryy	.	.	1ryy	.	0r	.	1ryy	1ryy
.	.	8gg\J	.	8bb\J	.	.	.	.	.	.	.	.	.	.	.	.
.	.	8qqff#/	.	8qqaa/	.	.	.	.	.	.	.	.	.	.	.	.
4A\	7	4ee\	.	4gg\	.	.	.	.	.	.	.	.	.	.	.	.
4B\	5	8dd\L	.	8ff#`>\L	.	.	.	.	.	.	.	.	.	.	.	.
.	.	16aa\L	.	(>16aa\L	.	.	.	.	.	.	.	.	.	.	.	.
.	.	16ff#\JJ	.	16ff#\JJ)	.	.	.	.	.	.	.	.	.	.	.	.
!	!	!	!	!LO:LB:g=original	!	!	!	!	!	!	!	!	!	!	!	!
8r	.	(>16cc#\LL	.	(>16cc#\LL	.	.	.	.	.	.	.	.	.	.	.	.
.	.	16dd\)	.	16dd\)	.	.	.	.	.	.	.	.	.	.	.	.
8F#\	.	(>16a\	.	(>16a\	.	.	.	.	.	.	.	.	.	.	.	.
.	.	16ccn\JJ)	.	16ccn\JJ)	.	.	.	.	.	.	.	.	.	.	.	.
!	!	!LO:LB:g=original	!	!	!	!	!	!	!	!	!	!	!	!	!	!
=18	=18	=18	=18	=18	=18	=18	=18	=18	=18	=18	=18	=18	=18	=18	=18	=18
4G\	.	8d/L	.	8b\L	.	1ryy	.	1ryy	.	.	1ryy	.	.	.	1ryy	1ryy
.	.	8b/J	.	8gg\J	.	.	.	.	.	.	.	.	.	.	.	.
4A\	.	(<16a/LL	.	(>16ff#\LL	.	.	.	.	.	.	.	.	.	.	.	.
.	.	16g/)	.	16ee\	.	.	.	.	.	.	.	.	.	.	.	.
.	.	(<16f#/	.	16dd\	.	.	.	.	.	.	.	.	.	.	.	.
.	.	16e/JJ)	.	16cc#\JJ)	.	.	.	.	.	.	.	.	.	.	.	.
!	!	!LO:TX:a:t=P:problem=mixed beam	!	!	!	!	!	!	!	!	!	!	!	!	!	!
8D\L	.	8f#/L	.	8dd\L	.	.	.	.	.	.	.	.	.	.	.	.
8F#\	6	8ddd\J	.	8ddd\J	.	.	.	.	.	.	.	.	.	.	.	.
8G\	.	16ccc#\LL	.	(>16ccc#\LL	.	.	.	.	.	.	.	.	.	.	.	.
.	.	16bb\	.	16bb\	.	.	.	.	.	.	.	.	.	.	.	.
8E\J	.	16aa\	.	16aa\	.	.	.	.	.	.	.	.	.	.	.	.
.	.	16gg\JJ	.	16gg\JJ)	.	.	.	.	.	.	.	.	.	.	.	.
=19	=19	=19	=19	=19	=19	=19	=19	=19	=19	=19	=19	=19	=19	=19	=19	=19
4A\	6 4	32ff#\LLL	.	(>32ff#\LLL	.	1ryy	.	1ryy	.	.	1ryy	.	1r	.	1ryy	1ryy
.	.	(>32ee\JJ	.	32ee\JJ	.	.	.	.	.	.	.	.	.	.	.	.
.	.	8.dd\J)	.	8.dd\J)	.	.	.	.	.	.	.	.	.	.	.	.
4AA/	5 3	4eeT>\	.	4eeT>\	.	.	.	.	.	.	.	.	.	.	.	.
8D/L	.	8dd\L	.	8dd\L	.	.	.	.	.	.	.	.	.	.	.	.
8AA/J	.	8a\J	.	8a\J	.	.	.	.	.	.	.	.	.	.	.	.
4DD/	.	4d/	.	4d/	.	.	.	.	.	.	.	.	.	.	.	.
!	!	!	!	!	!	!	!	!	!	!	!	!	!LO:LB:g=original	!	!	!
=20	=20	=20	=20	=20	=20	=20	=20	=20	=20	=20	=20	=20	=20	=20	=20	=20
!	!	!	!LO:DY:a:rj	!	!LO:DY:a	!	!	!	!	!	!	!	!	!	!	!
8r	.	8dd#X\	p	8ff#\	p	1ryy	.	1ryy	.	.	1ryy	.	8ff#\	Chri-	1ryy	1ryy
!LO:TX:a:t=P:problem=mixed beam	!	!	!	!	!	!	!	!	!	!	!	!	!	!	!	!
8B\L	#	4dd#\	.	4ff#\	.	.	.	.	.	.	.	.	4ff#\	.	.	.
8BB/	.	.	.	.	.	.	.	.	.	.	.	.	.	.	.	.
8B\J	.	16cc#\LL	.	(>16ee\LL	.	.	.	.	.	.	.	.	(>16ee\LL	-ste	.	.
.	.	16b\JJ	.	16dd#X\JJ)	.	.	.	.	.	.	.	.	16ddn\JJ)	.	.	.
!	!	!	!	!	!	!	!	!	!	!	!	!	!LO:SIC:l:s=e-:v	!	!	!
8r	.	8ff#\	.	8aa\	.	.	.	.	.	.	.	.	8aa\	.	.	.
!LO:TX:a:t=P:problem=mixed beam	!	!	!	!	!	!	!	!	!	!	!	!	!	!	!	!
8B\L	.	4ff#\	.	4aa\	.	.	.	.	.	.	.	.	4aa\	-lei-	.	.
8BB/	.	.	.	.	.	.	.	.	.	.	.	.	.	.	.	.
8B\J	.	16ee\LL	.	(>16gg\LL	.	.	.	.	.	.	.	.	(>16gg\LL	.	.	.
.	.	16dd#X\JJ	.	16ff#\JJ)	.	.	.	.	.	.	.	.	16ff#\JJ)	.	.	.
!LO:LB:g=original	!	!	!	!	!	!	!	!	!	!	!	!	!	!	!	!
=21	=21	=21	=21	=21	=21	=21	=21	=21	=21	=21	=21	=21	=21	=21	=21	=21
.	.	.	.	8qqaa/	.	.	.	.	.	.	.	.	8qqaa/	.	.	.
8r	.	16ee\LL	.	8gg\L	.	1ryy	.	1ryy	.	.	1ryy	.	8gg\L	.	1ryy	1ryy
.	.	16b\	.	.	.	.	.	.	.	.	.	.	.	.	.	.
!LO:TX:a:t=P:problem=mixed beam	!	!	!	!	!	!	!	!	!	!	!	!	!	!	!	!
8E\L	.	16a\	.	(>16ff#\L	.	.	.	.	.	.	.	.	16ff#\L	.	.	.
.	.	16g\JJ	.	16ee\JJ)	.	.	.	.	.	.	.	.	16ee\JJ	.	.	.
.	.	8qqb/	.	8qqgg/	.	.	.	.	.	.	.	.	8qqgg/	.	.	.
8B\	#	8a/L	.	8ff#\L	.	.	.	.	.	.	.	.	8ff#\L	.	.	.
8BB/J	.	16g/L	.	(>16ee\L	.	.	.	.	.	.	.	.	16ee\L	.	.	.
.	.	16f#/JJ	.	16dd#X\JJ)	.	.	.	.	.	.	.	.	16dd\JJ	.	.	.
!	!	!LO:TX:a:t=P:problem=w źródle skreślona kreska taktowa; poprawka skryptora	!	!	!	!	!	!	!	!	!	!	!	!	!	!
!	!	!LO:TX:a:Bi:t=g	!	!	!	!	!	!	!	!	!	!	!	!	!	!
4E\	.	(<8g/L	.	8ee`>\L	.	.	.	.	.	.	.	.	8ee\	-son	.	.
.	.	8g/	.	(>8b\	.	.	.	.	.	.	.	.	8r	.	.	.
4r	.	8f#/)	.	8a\	.	.	.	.	.	.	.	.	4r	.	.	.
.	.	8e/J	.	8g\J)	.	.	.	.	.	.	.	.	.	.	.	.
=22	=22	=22	=22	=22	=22	=22	=22	=22	=22	=22	=22	=22	=22	=22	=22	=22
8r	.	8cc#\	.	8ee\	.	1ryy	.	1ryy	.	.	1ryy	.	8ee\	Chri-	1ryy	1ryy
!LO:TX:a:t=P:problem=mixed beam	!	!	!	!	!	!	!	!	!	!	!	!	!	!	!	!
8A\L	.	4cc#\	.	4ee\	.	.	.	.	.	.	.	.	4ee\	.	.	.
8AA/	.	.	.	.	.	.	.	.	.	.	.	.	.	.	.	.
8A\J	.	16b\LL	.	(>16ddn\LL	.	.	.	.	.	.	.	.	16ddn\LL	-ste	.	.
.	.	16a\JJ	.	16cc#\JJ)	.	.	.	.	.	.	.	.	16cc#\JJ	.	.	.
!	!	!	!	!LO:LB:g=original	!	!	!	!	!	!	!	!	!	!	!	!
!	!	!	!	!	!	!	!	!	!	!	!	!	!LO:SIC:l:s=e-:v	!	!	!
8r	.	8ee\	.	8gg\	.	.	.	.	.	.	.	.	8gg\	.	.	.
!LO:TX:a:t=P:problem=mixed beam	!	!	!	!	!	!	!	!	!	!	!	!	!	!	!	!
8A\L	.	4ee\	.	4gg\	.	.	.	.	.	.	.	.	4gg\	.	.	.
8AA/	.	.	.	.	.	.	.	.	.	.	.	.	.	.	.	.
8A\J	.	16dd\LL	.	(>16ff#\LL	.	.	.	.	.	.	.	.	(>16ff#\LL	-lei-	.	.
.	.	16cc#\JJ	.	16ee\JJ)	.	.	.	.	.	.	.	.	16ee\JJ)	.	.	.
!	!	!LO:LB:g=original	!	!	!	!	!	!	!	!	!	!	!	!	!	!
=23	=23	=23	=23	=23	=23	=23	=23	=23	=23	=23	=23	=23	=23	=23	=23	=23
.	.	.	.	8qqgg/	.	.	.	.	.	.	.	.	8qqgg/	.	.	.
8r	.	16dd`>\LL	.	8ff#\L	.	1ryy	.	1ryy	.	.	1ryy	.	8ff#\L	.	1ryy	1ryy
.	.	(>16a\	.	.	.	.	.	.	.	.	.	.	.	.	.	.
!LO:TX:a:t=P:problem=mixed beam	!	!	!	!	!	!	!	!	!	!	!	!	!	!	!	!
8D\L	.	16g\	.	16ee\L	.	.	.	.	.	.	.	.	16ee\L	.	.	.
.	.	16f#\JJ)	.	16dd\JJ	.	.	.	.	.	.	.	.	16dd\JJ	.	.	.
.	.	8qqa/	.	8qqff#/	.	.	.	.	.	.	.	.	8qqff#/	.	.	.
8A\	.	8g/L	.	8ee\L	.	.	.	.	.	.	.	.	8ee\L	.	.	.
8AA/J	.	16f#/L	.	16dd\L	.	.	.	.	.	.	.	.	16dd\L	.	.	.
.	.	16e/JJ	.	16cc#\JJ	.	.	.	.	.	.	.	.	16cc#\JJ	.	.	.
!	!	!LO:TX:a:t=P:problem=mixed beam	!	!	!	!	!	!	!	!	!	!	!	!	!	!
8D\L	.	8f#/L	.	8dd\L	.	.	.	.	.	.	.	.	8dd\	-son	.	.
8BB\	.	8dd\J	.	8ff#\J	.	.	.	.	.	.	.	.	8ff#\	e-	.	.
!	!	!	!	!	!	!	!	!	!	!	!	!	!LO:TX:a:t=P:problem=w źródle skreślona kreska taktowa; poprawka skryptora	!	!	!
8G\	6 x	16cc#\LL	.	16ee\LL	.	.	.	.	.	.	.	.	16ee\LL	-lei-	.	.
.	.	16b\	.	(>16dd\	.	.	.	.	.	.	.	.	16dd\	.	.	.
8E#X\J	6\ 5	16a#X\	.	16cc#\	.	.	.	.	.	.	.	.	16cc#\	.	.	.
.	.	16g#X\JJ	.	16b\JJ)	.	.	.	.	.	.	.	.	16b\JJ	.	.	.
=24	=24	=24	=24	=24	=24	=24	=24	=24	=24	=24	=24	=24	=24	=24	=24	=24
.	.	.	.	8qqb/	.	.	.	.	.	.	.	.	8qqb/	.	.	.
4F#\	#	8.f#/L	.	8.a#X/L	.	1ryy	.	1ryy	.	.	1ryy	.	8.a#X\L	.	1ryy	1ryy
.	.	16g#X/Jk	.	16b/Jk	.	.	.	.	.	.	.	.	16b\Jk	.	.	.
8r	.	8a#X/L	.	8cc#\L	.	.	.	.	.	.	.	.	8cc#\	.	.	.
!	!	!	!	!	!	!	!	!	!	!	!	!	!LO:TX:a:t=P:problem=w źródle skreślona kreska taktowa i w wolnym miejscu dopisana nuta 8cc#; poprawka skryptora	!	!	!
8B\	.	8b/J	.	8dd\J	.	.	.	.	.	.	.	.	8cc#\	.	.	.
.	.	.	.	8qqee/	.	.	.	.	.	.	.	.	.	.	.	.
!	!	!	!	!	!	!	!	!	!	!	!	!	!LO:LB:g=original	!	!	!
8E#X\L	7	8b/L	.	8dd\L	.	.	.	.	.	.	.	.	8dd\	.	.	.
.	#	.	.	.	.	.	.	.	.	.	.	.	.	.	.	.
8F#\J	.	8a#X/J	.	8cc#\J	.	.	.	.	.	.	.	.	8cc#\	-son	.	.
16F#\LL	.	4r	.	4r	.	.	.	.	.	.	.	.	4r	.	.	.
16En\	.	.	.	.	.	.	.	.	.	.	.	.	.	.	.	.
16D\	.	.	.	.	.	.	.	.	.	.	.	.	.	.	.	.
16C#\JJ	.	.	.	.	.	.	.	.	.	.	.	.	.	.	.	.
=25	=25	=25	=25	=25	=25	=25	=25	=25	=25	=25	=25	=25	=25	=25	=25	=25
!LO:TX:a:t=P:problem=mixed beam	!	!	!	!	!	!	!	!	!	!	!	!	!	!	!	!
8BB/L	.	8dd\	.	8ff#\	.	1ryy	.	1ryy	.	.	1ryy	.	8ff#\	Chri-	1ryy	1ryy
8B\	.	4dd\	.	4ff#\	.	.	.	.	.	.	.	.	4ff#\	.	.	.
8BB/	.	.	.	.	.	.	.	.	.	.	.	.	.	.	.	.
8B\J	.	16cc#\LL	.	16ee\LL	.	.	.	.	.	.	.	.	(>16ee\LL	-ste	.	.
.	.	16b\JJ	.	16dd\JJ	.	.	.	.	.	.	.	.	16dd\JJ)	.	.	.
!	!	!	!	!	!	!	!	!	!	!	!	!	!LO:SIC:l:s=e-:v	!	!	!
8r	.	8cc#\	.	8ee\	.	.	.	.	.	.	.	.	8ee\	.	.	.
8A#X\L	6 5	4cc#\	.	4ee\	.	.	.	.	.	.	.	.	4ee\	-lei-	.	.
8c#\	.	.	.	.	.	.	.	.	.	.	.	.	.	.	.	.
8F#\J	.	16b\LL	.	(>16dd\LL	.	.	.	.	.	.	.	.	(>16dd\LL	.	.	.
.	.	16a#X\JJ	.	16cc#\JJ)	.	.	.	.	.	.	.	.	16cc#\JJ)	.	.	.
=26	=26	=26	=26	=26	=26	=26	=26	=26	=26	=26	=26	=26	=26	=26	=26	=26
*	*	*	*	*Xtuplet	*	*	*	*	*	*	*	*	*	*	*	*
8r	.	8.b\L	.	8.ddT>\L	.	1ryy	.	1ryy	.	.	1ryy	.	(>8.dd\L	.	1ryy	1ryy
8B\L	.	.	.	.	.	.	.	.	.	.	.	.	.	.	.	.
.	.	(>32cc#\LL	.	(>32ee\LL	.	.	.	.	.	.	.	.	32ee\LL	.	.	.
.	.	32dd\JJJ)	.	32ff#\JJJ)	.	.	.	.	.	.	.	.	32ff#\JJJ)	.	.	.
8E\	6 x	8cc#\L	.	8ee\L	.	.	.	.	.	.	.	.	8ee\L	.	.	.
8E#X\J	7 5	8b\J	.	8dd\J	.	.	.	.	.	.	.	.	8dd\J	.	.	.
.	.	.	.	8qqdd/	.	.	.	.	.	.	.	.	8qqdd/	.	.	.
!LO:TX:a:t=P:problem=w źródle nadmiarowa kreska taktowa	!	!	!	!	!	!	!	!	!	!	!	!	!	!	!	!
8r	.	4a#X/	.	4cc#\	.	.	.	.	.	.	.	.	4cc#\	-son	.	.
!LO:TX:a:t=P:problem=mixed beam	!	!	!	!	!	!	!	!	!	!	!	!	!	!	!	!
8F#\L	# x	.	.	.	.	.	.	.	.	.	.	.	.	.	.	.
!	!	!	!	!	!LO:DY:a	!	!	!	!	!	!	!	!	!	!	!
8FF#/	.	(<24f#/LL	.	(<24f#/LL	f	.	.	.	.	.	.	.	4r	.	.	.
.	.	24g#X/	.	24g#X/	.	.	.	.	.	.	.	.	.	.	.	.
.	.	24a#X/JJ)	.	24a#X/JJ)	.	.	.	.	.	.	.	.	.	.	.	.
8F#\J	.	(<24a#/LL	.	(<24a#/LL	.	.	.	.	.	.	.	.	.	.	.	.
.	.	24b/	.	24b/	.	.	.	.	.	.	.	.	.	.	.	.
.	.	24cc#/JJ)	.	24cc#/JJ)	.	.	.	.	.	.	.	.	.	.	.	.
!LO:LB:g=original	!	!	!	!LO:LB:g=original	!	!	!	!	!	!	!	!	!	!	!	!
=27	=27	=27	=27	=27	=27	=27	=27	=27	=27	=27	=27	=27	=27	=27	=27	=27
!	!	!	!	!LO:TX:a:t=P:problem=mixed beam	!	!	!	!	!	!	!	!	!	!	!	!
!	!	!	!	!	!LO:DY:a:t=%sia	!	!	!	!	!	!	!	!	!	!	!
8r	.	8f#/L	.	8f#/L	p	1ryy	.	1ryy	.	.	1ryy	.	8r	.	1ryy	1ryy
!LO:TX:a:t=P:problem=mixed beam	!	!	!	!	!	!	!	!	!	!	!	!	!	!	!	!
8F#\L	7 #	(<8cc#/	.	8ee\	.	.	.	.	.	.	.	.	8ee\	e-	.	.
8FF#/	6 4	8b/	.	8dd\	.	.	.	.	.	.	.	.	8dd\L	-le-	.	.
8F#\J	5 #	8a#X/J)	.	8cc#\J	.	.	.	.	.	.	.	.	8cc#\J	-i-	.	.
.	.	8qqa#/	.	8qqcc#/	.	.	.	.	.	.	.	.	8qqcc#/	.	.	.
8r	.	4b/	.	4dd\	.	.	.	.	.	.	.	.	4dd\	-son	.	.
!	!	!LO:LB:g=original	!	!	!	!	!	!	!	!	!	!	!	!	!	!
!LO:TX:a:t=P:problem=mixed beam	!	!	!	!	!	!	!	!	!	!	!	!	!	!	!	!
8F#\L	6_ 4_	.	.	.	.	.	.	.	.	.	.	.	.	.	.	.
!	!	!	!LO:DY:b:rj	!	!LO:DY:a	!	!	!	!	!	!	!	!	!	!	!
8FF#/	.	(<24f#/LL	f	(<24f#/LL	f	.	.	.	.	.	.	.	4r	.	.	.
.	.	24g#X/	.	24g#X/	.	.	.	.	.	.	.	.	.	.	.	.
.	.	24a#X/JJ)	.	24a#X/JJ)	.	.	.	.	.	.	.	.	.	.	.	.
8F#\J	X X	(<24b/LL	.	(<24b/LL	.	.	.	.	.	.	.	.	.	.	.	.
.	.	24cc#/	.	24cc#/	.	.	.	.	.	.	.	.	.	.	.	.
.	.	24dd/JJ)	.	24dd/JJ)	.	.	.	.	.	.	.	.	.	.	.	.
=28	=28	=28	=28	=28	=28	=28	=28	=28	=28	=28	=28	=28	=28	=28	=28	=28
!	!	!LO:TX:a:t=P:problem=mixed beam	!	!LO:TX:a:t=P:problem=mixed beam	!	!	!	!	!	!	!	!	!	!	!	!
!	!	!	!LO:DY:a:t=%sio	!	!LO:DY:a	!	!	!	!	!	!	!	!	!	!	!
8r	.	8f#/L	p	8f#/L	p	1ryy	.	1ryy	.	.	1ryy	.	8r	.	1ryy	1ryy
*	*	*	*	*	*	*	*	*	*	*	*	*	*	*ij	*	*
!LO:TX:a:t=P:problem=mixed beam	!	!	!	!	!	!	!	!	!	!	!	!	!	!	!	!
8F#\L	6 4	8dd\	.	(>8ff#\	.	.	.	.	.	.	.	.	8ff#\	e-	.	.
8FF#/	5 #	8cc#\	.	8ee\	.	.	.	.	.	.	.	.	(>8ee\L	-le-	.	.
8F#\J	6 4	8b\J	.	8dd\J)	.	.	.	.	.	.	.	.	8dd\J)	-i-	.	.
.	.	8qqb/	.	8qqdd/	.	.	.	.	.	.	.	.	8qqdd/	.	.	.
8r	.	4cc#\	.	4ee\	.	.	.	.	.	.	.	.	4ee\	-son	.	.
!LO:TX:a:t=P:problem=mixed beam	!	!	!	!	!	!	!	!	!	!	!	!	!	!	!	!
8F#\L	# x	.	.	.	.	.	.	.	.	.	.	.	.	.	.	.
*	*	*	*	*	*	*	*	*	*	*	*	*	*	*Xij	*	*
!	!	!	!	!	!LO:DY:a	!	!	!	!	!	!	!	!	!	!	!
8FF#/	.	(>24a#X\LL	.	(>24a#X\LL	f	.	.	.	.	.	.	.	4r	.	.	.
.	.	24b\	.	24b\	.	.	.	.	.	.	.	.	.	.	.	.
.	.	24cc#\JJ)	.	24cc#\JJ)	.	.	.	.	.	.	.	.	.	.	.	.
8F#\J	.	(>24cc#\LL	.	(>24cc#\LL	.	.	.	.	.	.	.	.	.	.	.	.
.	.	24dd\	.	24dd\	.	.	.	.	.	.	.	.	.	.	.	.
.	.	24ee\JJ)	.	24ee\JJ)	.	.	.	.	.	.	.	.	.	.	.	.
*	*	*tuplet	*	*tuplet	*	*	*	*	*	*	*	*	*	*	*	*
=29	=29	=29	=29	=29	=29	=29	=29	=29	=29	=29	=29	=29	=29	=29	=29	=29
!	!	!	!	!LO:TX:a:t=P:problem=mixed beam	!	!	!	!	!	!	!	!	!	!	!	!
!	!	!	!	!	!LO:DY:a	!	!	!	!	!	!	!	!	!	!	!
8r	.	8a#X\L	.	8a#X/L	p	1ryy	.	1ryy	.	.	1ryy	.	8r	.	1ryy	1ryy
!LO:TX:a:t=P:problem=mixed beam	!	!	!	!	!	!	!	!	!	!	!	!	!	!	!	!
8F#\L	.	8ee\J	.	8gg\J	.	.	.	.	.	.	.	.	8gg\	e-	.	.
8FF#/	.	(>16dd\LL	.	(>16ff#\LL	.	.	.	.	.	.	.	.	(>16ff#\LL	-le-	.	.
.	.	16b\)	.	16dd\)	.	.	.	.	.	.	.	.	16dd\)	.	.	.
8F#\J	.	(>16cc#\	.	(>16ee\	.	.	.	.	.	.	.	.	(>16ee\	-i-	.	.
.	.	16a#X\JJ)	.	16cc#\JJ)	.	.	.	.	.	.	.	.	16cc#\JJ)	.	.	.
8r	.	16b\LL|	.	16dd\LL	.	.	.	.	.	.	.	.	4ee\	.	.	.
.	.	16cc#\JJ	.	16ee\JJ	.	.	.	.	.	.	.	.	.	.	.	.
8BB/L	.	4dd\	.	4ff#\	.	.	.	.	.	.	.	.	.	.	.	.
8D/	6	.	.	.	.	.	.	.	.	.	.	.	8ff#\	.	.	.
8E/J	.	8cc#\	.	8ee\	.	.	.	.	.	.	.	.	8ee\	.	.	.
!	!	!	!	!	!	!	!	!	!	!	!	!	!LO:LB:g=original	!	!	!
=30	=30	=30	=30	=30	=30	=30	=30	=30	=30	=30	=30	=30	=30	=30	=30	=30
4F#\	6 4	4b/	.	4dd\	.	1ryy	.	1ryy	.	.	1ryy	.	(>4dd\	.	1ryy	1ryy
4FF#/	6 #	4a#X/	.	4cc#t>\	.	.	.	.	.	.	.	.	4cc#\)	.	.	.
!	!	!	!LO:DY:b:rj	!	!LO:DY:a	!	!	!	!	!	!	!	!	!	!	!
4BB/	.	8b\L	f	8b\L	f	.	.	.	.	.	.	.	4b\	-son	.	.
.	.	16ff#\L	.	16ff#\L	.	.	.	.	.	.	.	.	.	.	.	.
.	.	16dd\JJ	.	16dd\JJ	.	.	.	.	.	.	.	.	.	.	.	.
8r	.	(<16a#X/LL	.	(<16a#X/LL	.	.	.	.	.	.	.	.	4r	.	.	.
.	.	16b/	.	16b/)	.	.	.	.	.	.	.	.	.	.	.	.
8D\	.	16f#/)	.	(<16f#/	.	.	.	.	.	.	.	.	.	.	.	.
.	.	16an/JJ	.	16an/JJ)	.	.	.	.	.	.	.	.	.	.	.	.
=31	=31	=31	=31	=31	=31	=31	=31	=31	=31	=31	=31	=31	=31	=31	=31	=31
!	!	!LO:TX:a:t=P:problem=mixed beam	!	!LO:TX:a:t=P:problem=mixed beam	!	!	!	!	!	!	!	!	!LO:TX:a:Bi:t=3	!	!	!
4E\	.	8g/L	.	8g/L	.	1ryy	.	1ryy	.	.	1ryy	.	0r	.	1ryy	1ryy
.	.	8ee\J	.	8gg\J	.	.	.	.	.	.	.	.	.	.	.	.
.	.	8qqdd/	.	8qqff#/	.	.	.	.	.	.	.	.	.	.	.	.
4F#\	7 #	4cc#\	.	4ee\	.	.	.	.	.	.	.	.	.	.	.	.
!	!	!	!	!LO:LB:g=original	!	!	!	!	!	!	!	!	!	!	!	!
8G\L	.	8b\L	.	8dd\L	.	.	.	.	.	.	.	.	.	.	.	.
8D\J	.	16ff#\L	.	(>16ff#\L	.	.	.	.	.	.	.	.	.	.	.	.
.	.	16dd\JJ	.	16dd\JJ)	.	.	.	.	.	.	.	.	.	.	.	.
8r	.	(<16a#X/LL	.	(<16a#X/LL	.	.	.	.	.	.	.	.	.	.	.	.
.	.	16b/)	.	16b/)	.	.	.	.	.	.	.	.	.	.	.	.
8D\	.	(<16f#/	.	(<16f#/	.	.	.	.	.	.	.	.	.	.	.	.
.	.	16an/JJ)	.	16an/JJ)	.	.	.	.	.	.	.	.	.	.	.	.
!	!	!LO:LB:g=original	!	!	!	!	!	!	!	!	!	!	!	!	!	!
=32	=32	=32	=32	=32	=32	=32	=32	=32	=32	=32	=32	=32	=32	=32	=32	=32
!	!	!	!	!LO:TX:a:t=P:problem=mixed beam	!	!	!	!	!	!	!	!	!	!	!	!
4E\	5	8g/L	.	8g/L	.	1ryy	.	1ryy	.	.	1ryy	.	.	.	1ryy	1ryy
.	.	8g/J	.	8ee\J	.	.	.	.	.	.	.	.	.	.	.	.
4F#\	#	16f#/LL	.	(>16dd\LL	.	.	.	.	.	.	.	.	.	.	.	.
.	.	16e/	.	16cc#\)	.	.	.	.	.	.	.	.	.	.	.	.
.	.	16d/	.	(>16b\	.	.	.	.	.	.	.	.	.	.	.	.
.	.	16c#/JJ	.	16a#X\JJ)	.	.	.	.	.	.	.	.	.	.	.	.
!	!	!LO:TX:a:t=P:problem=w źródle skreślona kreska taktowa; poprawka skryptora	!	!	!	!	!	!	!	!	!	!	!	!	!	!
!	!	!LO:TX:a:t=P:problem=mixed beam	!	!LO:TX:a:t=P:problem=mixed beam	!	!	!	!	!	!	!	!	!	!	!	!
8BB/L	3	8d/L	.	8b/L	.	.	.	.	.	.	.	.	.	.	.	.
8D/	6	8bb\J	.	8bb\J	.	.	.	.	.	.	.	.	.	.	.	.
8E/	.	16aa\LL	.	16aan\LL	.	.	.	.	.	.	.	.	.	.	.	.
.	.	16gg\	.	(>16gg\	.	.	.	.	.	.	.	.	.	.	.	.
8C#/J	.	16ff#\	.	16ff#\	.	.	.	.	.	.	.	.	.	.	.	.
.	.	16ee\JJ	.	16ee\JJ)	.	.	.	.	.	.	.	.	.	.	.	.
=33	=33	=33	=33	=33	=33	=33	=33	=33	=33	=33	=33	=33	=33	=33	=33	=33
4F#\	6 4	(>32dd\LLL	.	(>32dd\LLL	.	1ryy	.	1ryy	.	.	1ryy	.	1r	.	1ryy	1ryy
.	.	32cc#\JJ)	.	32cc#\JJ)	.	.	.	.	.	.	.	.	.	.	.	.
!	!	!	!	!LO:TX:a:t=P:problem=w źródle tryl dopisany innym atramentem	!	!	!	!	!	!	!	!	!	!	!	!
.	.	8.b\J	.	8.bT>\J	.	.	.	.	.	.	.	.	.	.	.	.
4FF#/	5 #	4cc#t>\	.	4cc#t\	.	.	.	.	.	.	.	.	.	.	.	.
4BB/	.	8b/L	.	8b/L	.	.	.	.	.	.	.	.	.	.	.	.
.	.	8f#/J	.	8f#/J	.	.	.	.	.	.	.	.	.	.	.	.
4r	.	4B/	.	4B;>/	.	.	.	.	.	.	.	.	.	.	.	.
!	!	!LO:TX:a:t=P:problem=w źródle ozdobna podwójna kreska taktowa	!	!	!	!	!	!	!	!	!	!	!	!	!	!
!	!	!LO:TX:a:Bi:t=(Chris)te  in Vesperis binis Vicib(us)	!	!LO:TX:a:Bi:t=In Vesperis (Chris)te binis \nVicib(us)	!	!	!	!	!	!	!	!	!	!	!	!
!LO:LB:g=original	!	!LO:LB:g=original	!	!LO:LB:g=original	!	!LO:LB:g=original	!	!LO:LB:g=original	!	!	!LO:LB:g=original	!	!	!	!	!
=||	=||	=||	=||	=||	=||	=||	=||	=||	=||	=||	=||	=||	=||	=||	=||	=||
*	*	*	*	*	*	*	*	*	*	*	*	*	*	*	*	*clefG2
*k[f#c#]	*	*k[f#c#]	*	*k[f#c#]	*	*k[f#c#]	*	*k[f#c#]	*	*	*k[f#c#]	*	*k[f#c#]	*	*k[f#c#]	*k[f#c#]
*M3/8	*	*M3/8	*	*M3/8	*	*M3/8	*	*M3/8	*	*	*M3/8	*	*M3/8	*	*M3/8	*M3/8
!LO:TX:a:Bi:t=Presto:rj	!	!LO:TX:a:Bi:t=Preſto	!	!LO:TX:a:Bi:t=Pr(es)to	!	!	!	!	!	!	!LO:TX:a:Bi:t=all(egr)o	!	!	!	!LO:TX:a:Bi:t=Presto:rj	!LO:TX:a:Bi:t=Presto
!LO:TX:b:Bi:t=Kyrie:rj	!	!LO:TX:b:Bi:t=Kyrie.:rj	!	!LO:TX:b:Bi:t=Kyrie:rj	!	!	!	!	!	!	!	!	!	!	!LO:TX:b:Bi:t=Kyrie:rj	!LO:TX:b:Bi:t=Kyrie:rj
!LO:TX:a:t=P:problem=mixed beam	!	!	!	!	!	!	!	!	!	!	!	!	!	!	!	!
8d\L	.	4.ff#\	.	4.aa\	.	4.D\	Ky-	4.f#\	Ky-	.	4.a\	Ky-	4.aa\	Ky-	4.ff#\	4.aa\
16D/L	.	.	.	.	.	.	.	.	.	.	.	.	.	.	.	.
16E/	.	.	.	.	.	.	.	.	.	.	.	.	.	.	.	.
16F#/	.	.	.	.	.	.	.	.	.	.	.	.	.	.	.	.
16G/JJ	.	.	.	.	.	.	.	.	.	.	.	.	.	.	.	.
=34	=34	=34	=34	=34	=34	=34	=34	=34	=34	=34	=34	=34	=34	=34	=34	=34
8A\L	.	4.ee\	.	4.gg\	.	4.A\	-ri-	4.e\	-ri-	.	4.a\	-ri-	4.gg\	-ri-	4.ee\	4.gg\
8c#\	.	.	.	.	.	.	.	.	.	.	.	.	.	.	.	.
8A\J	.	.	.	.	.	.	.	.	.	.	.	.	.	.	.	.
=35	=35	=35	=35	=35	=35	=35	=35	=35	=35	=35	=35	=35	=35	=35	=35	=35
!	!	!LO:TX:a:t=P:problem=mixed beam	!	!	!	!	!	!	!	!	!	!	!	!	!	!
4d\	.	16dd\LL	.	16ff#\LL	.	4d\	-e	4d\	-e	.	4a\	-e	4ff#\	-e	4dd\	4ff#\
.	.	16ee\J	.	16gg\J	.	.	.	.	.	.	.	.	.	.	.	.
.	.	8ff#\	.	8aa\	.	.	.	.	.	.	.	.	.	.	.	.
8F#\	6	8a/J	.	8dd\J	.	8F#\	e-	8d\	e-	.	8a\	e-	8dd\	e-	8ff#\	8aa\
=36	=36	=36	=36	=36	=36	=36	=36	=36	=36	=36	=36	=36	=36	=36	=36	=36
!LO:TX:a:t=P:problem=mixed beam	!	!	!	!	!	!	!	!	!	!	!	!	!	!	!	!
8G\L	.	8b/	.	8ee\	.	(>8G\L	-lei-	4B\	-lei-	.	(>8b\	-lei-	8ee\	-lei-	8ee\	8gg\
.	.	8qqa/	.	8qqdd/	.	.	.	.	.	.	.	.	8qqdd/	.	.	.
8A\	.	4g/	.	4cc#\	.	8A\J)	.	.	.	.	4g\)	.	4cc#\	.	4a/	4ee\
8AA/J	.	.	.	.	.	8AA/	.	8A\	.	.	.	.	.	.	.	.
=37	=37	=37	=37	=37	=37	=37	=37	=37	=37	=37	=37	=37	=37	=37	=37	=37
!	!	!	!	!LO:TX:a:t=P:problem=mixed beam	!	!	!	!	!	!	!	!	!	!	!	!
4.D/	.	4.f#/	.	8dd\L	.	4.D/	-son	4A\	-son	.	4f#\	-son	4dd\	-son	4dd\	4ff#\
.	.	.	.	16d/L	.	.	.	.	.	.	.	.	.	.	.	.
.	.	.	.	16e/	.	.	.	.	.	.	.	.	.	.	.	.
.	.	.	.	16f#/	.	.	.	8r	.	.	8a\	e-	8ff#\	e-	8r	8r
.	.	.	.	16g/JJ	.	.	.	.	.	.	.	.	.	.	.	.
=38	=38	=38	=38	=38	=38	=38	=38	=38	=38	=38	=38	=38	=38	=38	=38	=38
4.C#/	6	4.e/	.	8a\L	.	4.C#/	Ky-	4.A\	e-	.	4.a\	-lei-	4.ee\	-lei-	4a/	4ee\
.	.	.	.	8b\	.	.	.	.	.	.	.	.	.	.	.	.
.	.	.	.	8cc#\J	.	.	.	.	.	.	.	.	.	.	8r	8r
=39	=39	=39	=39	=39	=39	=39	=39	=39	=39	=39	=39	=39	=39	=39	=39	=39
4.BB/	5	4.d/	.	8dd\L	.	4.BB/	-ri-	4.d\	-e-	.	4f#\	.	4.dd\	.	4dd\	4dd\
.	6	.	.	8ff#\	.	.	.	.	.	.	.	.	.	.	.	.
.	.	.	.	8gg#X\J	.	.	.	.	.	.	8g#X\	.	.	.	8r	8r
=40	=40	=40	=40	=40	=40	=40	=40	=40	=40	=40	=40	=40	=40	=40	=40	=40
4AA/	.	8c#/L	.	8aa\L	.	4AA/	-e	4e\	-lei-	.	4a\	-son	4cc#\	-son	4a/	4ee\
.	.	8A/	.	8ccc#\	.	.	.	.	.	.	.	.	.	.	.	.
8C#/	.	8a/J	.	8ee\J	.	8C#/	e-	8e\	.	.	8a\	e-	8ee\	e-	8a/	8ee\
=41	=41	=41	=41	=41	=41	=41	=41	=41	=41	=41	=41	=41	=41	=41	=41	=41
4D\	.	4a/	.	8ff#\L	.	[<4D/	-lei-	4.d\	.	.	4a\	-lei-	4ff#\	-lei-	4dd\	4ff#\
.	.	.	.	16dd\L	.	.	.	.	.	.	.	.	.	.	.	.
.	.	.	.	16ee\	.	.	.	.	.	.	.	.	.	.	.	.
8D\	.	8b/	.	16ff#\	.	8D/]	.	.	.	.	8b\	.	8gg#X\	.	8dd\	8ee\
.	.	.	.	16gg#X\JJ	.	.	.	.	.	.	.	.	.	.	.	.
=42	=42	=42	=42	=42	=42	=42	=42	=42	=42	=42	=42	=42	=42	=42	=42	=42
8C#/L	6	8cc#\L	.	8aa\L	.	8C#/	-son	4e\	-son	.	4cc#\	-son	4aa\	-son	4a/	4ee\
!	!	!	!	!	!	!LO:TX:a:t=P:problem=w źródle niepotrzebnie powtórzona samogłoska 'e'	!	!	!	!	!	!	!	!	!	!
8AA/	.	8ee\	.	8ccc#\	.	(<8AA/L	e	.	.	.	.	.	.	.	.	.
8C#/J	.	8a\J	.	8ee\J	.	8C#/J)	.	8r	.	.	8a\	e-	8ee\	e-	8r	8r
=43	=43	=43	=43	=43	=43	=43	=43	=43	=43	=43	=43	=43	=43	=43	=43	=43
8D\L	3	8a\L	.	4.ff#\	.	8D\L	e-	4.d\	e-	.	4.a\	-lei-	[>4.ff#\	-lei-	8dd\L	8ff#\L
(>16d\L	.	16ff#\L	.	.	.	16d\L	.	.	.	.	.	.	.	.	8dd\	8ff#\
16c#\	.	16ee\	.	.	.	16c#\	.	.	.	.	.	.	.	.	.	.
16B\	.	16dd\	.	.	.	16B\	.	.	.	.	.	.	.	.	8dd\J	8ff#\J
16A\JJ)	.	16cc#\JJ	.	.	.	16A\JJ	.	.	.	.	.	.	.	.	.	.
!	!	!	!	!	!	!	!	!LO:LB:g=original	!	!	!	!	!	!	!	!
=44	=44	=44	=44	=44	=44	=44	=44	=44	=44	=44	=44	=44	=44	=44	=44	=44
8G#X\L	7_	8b/L	.	4.ddd\	.	8G#X\L	.	4.d\	.	.	4.b\	.	(>4.ff#\]	.	4.dd\	4.ff#\
8B\	.	8g#X/	.	.	.	8B\	.	.	.	.	.	.	.	.	.	.
8G#\J	X	8b/J	.	.	.	8G#\J	.	.	.	.	.	.	.	.	.	.
!	!	!	!	!	!	!LO:SIC:custos C#:v	!	!	!	!	!	!	!	!	!	!
!	!	!	!	!	!	!LO:LB:g=original	!	!	!	!	!LO:LB:g=original	!	!	!	!	!LO:LB:g=original
=45	=45	=45	=45	=45	=45	=45	=45	=45	=45	=45	=45	=45	=45	=45	=45	=45
!LO:TX:a:t=P:problem=mixed beam	!	!	!	!	!	!LO:TX:a:t=P:problem=mixed beam	!	!	!	!	!	!	!	!	!	!
8C#/L	.	8cc#\L	.	4.ee\	.	8C#/L	.	[>4.c#\	.	.	4.b\	.	[>4.ee\)	.	4ee\	4ee\
16c#\L	.	16ee\L	.	.	.	16c#\L	.	.	.	.	.	.	.	.	.	.
(>16B\	.	16dd\	.	.	.	16B\	.	.	.	.	.	.	.	.	.	.
16A\	.	16cc#\	.	.	.	16A\	.	.	.	.	.	.	.	.	8r	8r
16G#X\JJ)	.	16b\JJ	.	.	.	16G#X\JJ	.	.	.	.	.	.	.	.	.	.
!LO:LB:g=original	!	!	!	!LO:LB:g=original	!	!	!	!	!	!	!	!	!LO:LB:g=original	!	!	!
=46	=46	=46	=46	=46	=46	=46	=46	=46	=46	=46	=46	=46	=46	=46	=46	=46
!	!	!	!	!	!	!	!	!	!	!	!	!	!LO:TX:a:t=P:problem=w źródle brak zakończenia ligatury	!	!	!
8F#\L	.	8a/L	.	4.ccc#\	.	8F#\L	.	(>4.c#\]	.	.	4.a\	.	4.ee\]	.	4ee\	4ee\
8A\	.	8f#/	.	.	.	8A\	.	.	.	.	.	.	.	.	.	.
8F#\J	.	8a/J	.	.	.	8F#\J	.	.	.	.	.	.	.	.	8r	8r
!	!	!LO:LB:g=original	!	!	!	!	!	!	!	!	!	!	!	!	!LO:LB:g=original	!
=47	=47	=47	=47	=47	=47	=47	=47	=47	=47	=47	=47	=47	=47	=47	=47	=47
!LO:TX:a:t=P:problem=mixed beam	!	!	!	!	!	!LO:TX:a:t=P:problem=mixed beam	!	!	!	!	!	!	!	!	!	!
8BB/L	.	8b\L	.	4.dd\	.	8BB/L	.	4.B\)	.	.	4.a\	.	4.dd\	.	4dd\	4dd\
16B\L	.	16dd\L	.	.	.	16B\L	.	.	.	.	.	.	.	.	.	.
16A\	.	16cc#\	.	.	.	16A\	.	.	.	.	.	.	.	.	.	.
16G#X\	.	16b\	.	.	.	16G#X\	.	.	.	.	.	.	.	.	8r	8r
16F#\JJ	.	16a\JJ	.	.	.	16F#\JJ	.	.	.	.	.	.	.	.	.	.
=48	=48	=48	=48	=48	=48	=48	=48	=48	=48	=48	=48	=48	=48	=48	=48	=48
8E\L	.	8g#X/L	.	4.bb\	.	8E\	.	4.B\	-lei-	.	4.g#X\	.	4.dd\	.	8r	8r
8G#X\	.	8e/	.	.	.	8G#X\	-lei-	.	.	.	.	.	.	.	8r	8r
8E\J	.	8g#/J	.	.	.	8E\	-son	.	.	.	.	.	.	.	8ee\	8ee\
=49	=49	=49	=49	=49	=49	=49	=49	=49	=49	=49	=49	=49	=49	=49	=49	=49
[>4.A\	x 3	8a\L	.	8cc#`>\L	.	[>4.A\	e-	8A\	-son	.	8e\	-son	8cc#\	-son	[<4.a/	4.a/
.	6 4	8cc#\	.	(>8ee\	.	.	.	8r	.	.	8cc#\L	e-	8ee\L	e-	.	.
.	.	8dd\J	.	8ff#\J)	.	.	.	8r	.	.	8dd\J	.	8ff#\J	.	.	.
=50	=50	=50	=50	=50	=50	=50	=50	=50	=50	=50	=50	=50	=50	=50	=50	=50
4.A\_>	5 3	8cc#\L	.	8ee`>\L	.	4.A\]	.	8e\	e-	.	8cc#\	-lei-	8ee\L	.	4.a/_<	4.a/
.	7 2	8cc#\	.	(>8aa\	.	.	.	(8e\L	-lei-	.	(>8cc#\L	.	8aa\	-lei-	.	.
.	.	8b\J	.	8gg#X\J)	.	.	.	8d\J)	.	.	8b\J)	.	8gg#X\J	.	.	.
=51	=51	=51	=51	=51	=51	=51	=51	=51	=51	=51	=51	=51	=51	=51	=51	=51
!	!	!LO:TX:a:t=P:problem=mixed beam	!	!LO:TX:a:t=P:problem=mixed beam	!	!	!	!	!	!	!	!	!	!	!	!
4.A\]	x 3	8cc#\L	.	8aa`>\L	.	[>4.A\	-lei-	8c#\	-son	.	8cc#\	-son	8aa\	-son	4.a/_<	4.a/
.	6 4	8c#/	.	(<8e/	.	.	.	8r	.	.	8cc#\L	e-	(>8ee\L	e-	.	.
.	.	8d/J	.	8f#/J)	.	.	.	8r	.	.	8dd\J	.	8ff#\J)	.	.	.
=52	=52	=52	=52	=52	=52	=52	=52	=52	=52	=52	=52	=52	=52	=52	=52	=52
4.A\	5 3	8c#/L	.	8e`</L	.	4.A\]	.	8A\	e-	.	8cc#\	-lei-	[<8ee\	-lei-	4.a/_<	4.a/
.	x 7	8c#/	.	(<8a/	.	.	.	8a\L	-lei-	.	(>8cc#\L	.	(>8ee\L]	.	.	.
.	.	8B/J	.	8g#X/J)	.	.	.	8g#X\J	.	.	8b\J)	.	8dd\J)	.	.	.
=53	=53	=53	=53	=53	=53	=53	=53	=53	=53	=53	=53	=53	=53	=53	=53	=53
!	!	!LO:TX:a:t=P:problem=mixed beam	!	!LO:TX:a:t=P:problem=mixed beam	!	!	!	!	!	!	!	!	!	!	!	!
8A\L	3	8c#/L	.	8a/L	.	8A\	-son	8a\	-son	.	4a\	-son	8cc#\	-son	4a/]	4a/
8A\	.	8cc#\	.	8ff#\	.	8r	.	8r	.	.	.	.	4ff#\	e-	.	.
!	!	!	!	!	!	!	!	!LO:LB:g=original	!	!	!	!	!	!	!	!
8A\J	6	8cc#\J	.	8ff#\J	.	8A\	e-	8A/	e-	.	8cc#\	e-	.	.	8r	8r
=54	=54	=54	=54	=54	=54	=54	=54	=54	=54	=54	=54	=54	=54	=54	=54	=54
!	!	!	!	!	!	!	!	!	!	!	!	!	!	!	!LO:TX:a:Bi:t=4	!LO:TX:a:Bi:t=4
!	!	!	!	!	!	!	!	!	!	!	!	!	!	!	!LO:N:vis=00	!LO:N:vis=00
8G#X\L	7	8b\L	.	16ff#\LL	.	4.G#X\	-lei-	8B\	-lei-	.	4.b\	-lei-	8ff#\	-lei-	1.r	1.r
.	.	.	.	16dd#X\JJ	.	.	.	.	.	.	.	.	.	.	.	.
.	.	.	.	8qqdd#/	.	.	.	.	.	.	.	.	.	.	.	.
!	!	!	!	!	!	!	!	!LO:TX:a:t=P:problem=mixed beam	!	!	!	!	!	!	!	!
8G#\	6	8b\	.	[>4ee\	.	.	.	8e\L	.	.	.	.	[>4ee\	.	.	.
8G#\J	.	8b\J	.	.	.	.	.	8E/J	.	.	.	.	.	.	.	.
=55	=55	=55	=55	=55	=55	=55	=55	=55	=55	=55	=55	=55	=55	=55	=55	=55
!	!	!	!	!	!	!	!	!	!	!LO:DY:b	!	!	!	!	!	!
8F#\L	.	8a/L	.	16ee\LL]	.	4.F#\	.	8F#/L	.	f	4.a\	.	8ee\]	.	.	.
.	.	.	.	16cc#\J	.	.	.	.	.	.	.	.	.	.	.	.
8F#\	.	8a/	.	8ddn\	.	.	.	8A/	.	.	.	.	[>4ddn\	.	.	.
8F#\J	6	8a/J	.	[>8dd\J	.	.	.	8d/J	.	.	.	.	.	.	.	.
!	!	!	!	!	!	!	!	!	!	!	!LO:LB:g=original	!	!	!	!	!
=56	=56	=56	=56	=56	=56	=56	=56	=56	=56	=56	=56	=56	=56	=56	=56	=56
8E\L	7	8g#X/L	.	16dd\LL]	.	4.E\	.	8r	.	.	4.g#X\	.	8dd\]	.	.	.
.	.	.	.	16b\JJ	.	.	.	.	.	.	.	.	.	.	.	.
.	.	.	.	8qqb/	.	.	.	.	.	.	.	.	.	.	.	.
!	!	!	!	!	!	!	!	!LO:TX:a:t=P:problem=mixed beam	!	!	!	!	!	!	!	!
8E\	.	8g#/	.	[>4cc#\	.	.	.	8c#\L	.	.	.	.	[<4cc#\	.	.	.
8E\J	6	8g#/J	.	.	.	.	.	8C#/J	.	.	.	.	.	.	.	.
!	!	!	!	!	!	!LO:SIC:custos D:v	!	!	!	!	!	!	!	!	!	!
!	!	!	!	!	!	!LO:LB:g=original	!	!	!	!	!	!	!	!	!	!
=57	=57	=57	=57	=57	=57	=57	=57	=57	=57	=57	=57	=57	=57	=57	=57	=57
8D\L	3	8f#/L	.	(>16cc#\LL]	.	4.D/	.	8D/L	.	.	4.f#\	.	8cc#\L]	.	.	.
.	.	.	.	16b\J)	.	.	.	.	.	.	.	.	.	.	.	.
8D\	6	8f#/	.	8ff#`>\	.	.	.	8F#/	.	.	.	.	8b\	.	.	.
8D\J	5	8f#/J	.	8a`>\J	.	.	.	8B/J	.	.	.	.	8a\J	.	.	.
=58	=58	=58	=58	=58	=58	=58	=58	=58	=58	=58	=58	=58	=58	=58	=58	=58
!	!	!	!	!	!	!	!	!LO:TX:a:t=P:problem=mixed beam	!	!	!	!	!	!	!	!
8D/L	4 2	8e/L	.	(>8g#X\L	.	(<8D/L	.	8B\L	.	.	4.e\	.	8g#X\L	.	8r	8r
8C#/	6 x	8e/	.	8a\)	.	8C#/J)	.	8c#\	.	.	.	.	8a\	.	8ee\L	8ee\L
8BB/J	5 x	8g#X/J	.	8dd`>\J	.	8BB/	-son	8G#X/J	.	.	.	.	8dd\J	.	8ee\J	8ee\J
!	!	!	!	!LO:LB:g=original	!	!	!	!	!	!	!	!	!	!	!	!
=59	=59	=59	=59	=59	=59	=59	=59	=59	=59	=59	=59	=59	=59	=59	=59	=59
*	*	*	*	*Xtuplet	*	*	*	*	*	*	*	*	*	*	*	*
!LO:TX:a:t=P:problem=mixed beam	!	!	!	!	!	!	!	!	!	!	!	!	!	!	!	!
8AA/L	.	8a/	.	(>24cc#\LL	.	8AA/	e-	8A/	.	.	8e\	.	8cc#\	.	8ee\	16ee\LL
.	.	.	.	24b\	.	.	.	.	.	.	.	.	.	.	.	.
.	.	.	.	.	.	.	.	.	.	.	.	.	.	.	.	16aa\JJ
.	.	.	.	24a\JJ)	.	.	.	.	.	.	.	.	.	.	.	.
.	.	.	.	.	.	.	.	.	.	.	.	.	.	.	.	8qqaa/
!	!	!	!	!	!	!LO:TX:a:t=P:problem=mixed beam	!	!	!	!	!	!	!	!	!	!
!	!	!	!	!	!	!	!	!	!	!	!	!	!LO:TX:a:B:t=t	!	!	!
8E\	#	4g#Xt>/	.	4bT>\	.	8E\L	-le-	4G#X/	.	.	4e\	-son	4b\	.	4ee\	4gg#X\
8EE/J	.	.	.	.	.	8EE/J	-i-	.	.	.	.	.	.	.	.	.
!LO:LB:g=original	!	!LO:LB:g=original	!	!	!	!	!	!	!	!	!	!	!LO:LB:g=original	!	!	!
=60	=60	=60	=60	=60	=60	=60	=60	=60	=60	=60	=60	=60	=60	=60	=60	=60
.	.	.	.	16qqa/	.	.	.	.	.	.	.	.	.	.	.	.
!LO:TX:a:t=P:problem=mixed beam	!	!	!	!	!	!	!	!	!	!	!	!	!	!	!LO:TX:a:t=P:problem=mixed beam	!
8A\L	.	4.cc#\	.	4.ee\	.	8AA/	-son	8A/	-son	.	8e\	.	8a\	-son	8ee\L	8aa\L
*	*	*	*	*	*	*	*	*	*	*	*	*	*	*	*	*rscale:2
!	!	!	!	!	!	!	!	!	!	!	!	!	!LO:TX:a:t=P:problem=w źródle skreślona kreska taktowa; poprawka skryptora	!	!	!
!	!	!	!	!	!	!	!	!	!	!	!	!	!	!	!	!LO:TX:a:t=P:problem=w źródle grupa nut ty z pojedynczą belką
16AA/L	.	.	.	.	.	(<16AA/LL	e-	8A/	Ky-	.	8cc#\	Ky-	8ee\	Ky-	8a/	16ee\
16BB/	.	.	.	.	.	16BB/	.	.	.	.	.	.	.	.	.	16ee\
16C#/	.	.	.	.	.	16C#/	.	8A/	-ri-	.	8cc#\	-ri-	8ee\	-ri-	8a/J	16ee\
16D/JJ	.	.	.	.	.	16D/JJ)	.	.	.	.	.	.	.	.	.	16ee\J
*	*	*	*	*	*	*	*	*	*	*	*	*	*	*	*	*rscale:1
!	!	!	!	!	!	!	!	!LO:SIC:custos G#:v	!	!	!	!	!	!	!	!
!	!	!	!	!	!	!	!	!LO:LB:g=original	!	!	!	!	!	!	!	!
=61	=61	=61	=61	=61	=61	=61	=61	=61	=61	=61	=61	=61	=61	=61	=61	=61
8E\L	.	4.b\	.	4.dd\	.	(>8E\L	.	4G#X/	-e	.	4b\	-e	4dd\	-e	4ee\	4ee\
8G#X\	.	.	.	.	.	8G#X\	.	.	.	.	.	.	.	.	.	.
!	!	!	!	!	!	!	!	!LO:SIC:l:s=e-:v	!	!	!LO:SIC:l:s=e-:v	!	!	!	!	!
8E\J	.	.	.	.	.	8E\J)	.	8G#/	.	.	8b\	.	8dd\	e-	8r	8r
=62	=62	=62	=62	=62	=62	=62	=62	=62	=62	=62	=62	=62	=62	=62	=62	=62
!	!	!LO:TX:a:t=P:problem=mixed beam	!	!	!	!	!	!	!	!	!	!	!	!	!	!
4A\	.	16a\LL	.	16cc#\LL	.	4A\	-lei-	16A\LL	.	.	4.a\	.	8cc#\	-lei-	4ee\	4ee\
.	.	16b\J	.	16dd\J	.	.	.	16c#\J	.	.	.	.	.	.	.	.
.	.	8cc#\	.	8ee\	.	.	.	8e\	.	.	.	.	4ee\	.	.	.
8C#/	.	8e/J	.	8a\J	.	8C#/	-son	8c#\J	.	.	.	.	.	.	8r	8r
=63	=63	=63	=63	=63	=63	=63	=63	=63	=63	=63	=63	=63	=63	=63	=63	=63
!LO:TX:a:t=P:problem=mixed beam	!	!	!	!	!	!	!	!	!	!	!	!	!	!	!	!
8D\L	.	8f#/	.	8b/	.	8D\	e-	8f#\	-lei-	.	8b\	.	8dd\	.	8r	8r
.	.	8qqe/	.	8qqa/	.	.	.	.	.	.	.	.	.	.	.	.
!	!	!	!	!	!	!LO:TX:a:t=P:problem=mixed beam	!	!	!	!	!	!	!	!	!	!
8E\	.	4d/	.	4g#X/	.	8E\L	-le-	4e\	.	.	4g#X\	lei	4b\	.	8ee\L	8ee\L
8EE/J	.	.	.	.	.	8EE/J	-i-	.	.	.	.	.	.	.	8ee\J	8ee\J
=64	=64	=64	=64	=64	=64	=64	=64	=64	=64	=64	=64	=64	=64	=64	=64	=64
!	!	!	!	!	!	!	!	!LO:N:vis=4	!	!	!	!	!	!	!	!
8AA/	.	8c#/L	.	8a`>\L	.	4AA/	-son	8e\	-son	.	8a\	son	8cc#\	-son	4ee\	4ee\
8r	.	8a/	.	(>8cc#\	.	.	.	8r	.	.	8a\	Ky-	8cc#\	Ky-	.	.
8r	.	8b/J	.	8dd\J)	.	8r	.	8r	.	.	8b\	-ri-	8dd\	-ri-	8r	8r
!	!	!	!	!	!	!	!	!	!	!	!	!	!	!	!	!LO:LB:g=original
=65	=65	=65	=65	=65	=65	=65	=65	=65	=65	=65	=65	=65	=65	=65	=65	=65
8A\L	3_	8cc#`>\L	.	8ee`>\L	.	8r	.	8r	.	.	8cc#\	-e	8ee\	-e	8r	8r
8G\	.	(>8cc#\	.	(>8ee\	.	8G\	Ky-	8c#\	Ky-	.	8a\	Ky-	8ee\	.	8ee\L	8ee\L
8F#\J	6	8dd\J)	.	8ff#\J)	.	8F#\	-ri-	8d\	-ri-	.	8a\	-ri-	8ff#\	.	8ff#\J	8ff#\J
!	!	!	!	!	!	!	!	!	!	!	!LO:LB:g=original	!	!	!	!	!
=66	=66	=66	=66	=66	=66	=66	=66	=66	=66	=66	=66	=66	=66	=66	=66	=66
4E\	.	4b\	.	8ggn\L	.	4E\	-e	4B\	-e	.	4b\	-e	4gg\	.	4.ee\	4.ggn\
.	.	.	.	16bb\L	.	.	.	.	.	.	.	.	.	.	.	.
.	.	.	.	16gg\	.	.	.	.	.	.	.	.	.	.	.	.
!	!	!	!	!	!	!	!	!LO:SIC:l:s=e-:v	!	!	!	!	!	!	!	!
8G\	6	8b\	.	16ee\	.	8G\	.	8e\	.	.	8b\	e-	8ee\	e-	.	.
.	.	.	.	16dd\JJ	.	.	.	.	.	.	.	.	.	.	.	.
!	!	!	!	!	!	!LO:SIC:custos A:v	!	!	!	!	!	!	!	!	!	!
!	!	!	!	!	!	!LO:LB:g=original	!	!	!	!	!	!	!	!	!	!
=67	=67	=67	=67	=67	=67	=67	=67	=67	=67	=67	=67	=67	=67	=67	=67	=67
8A\L	.	16e/LL	.	16cc#\LL	.	8A\L	.	8e\	lei-	.	8a\	-lei-	16cc#\LL	-lei-	8a/L	8ee\L
.	.	16d/J	.	16b\J	.	.	.	.	.	.	.	.	16b\JJ	.	.	.
16A\L	.	8c#/J	.	8a\J	.	16A\L	.	8e\	-son	.	8a\	-son	8a\	-son	16a/L	16ee\L
16G\	.	.	.	.	.	16G\	.	.	.	.	.	.	.	.	16a/	16ee\
16F#\	.	8r	.	8r	.	16F#\	.	8r	.	.	8re	.	8r	.	16a/	16ee\
16E\JJ	.	.	.	.	.	16E\JJ	.	.	.	.	.	.	.	.	16a/JJ	16ee\JJ
!	!	!	!	!	!	!	!	!	!	!	!	!	!	!	!LO:LB:g=original	!
=68	=68	=68	=68	=68	=68	=68	=68	=68	=68	=68	=68	=68	=68	=68	=68	=68
!	!	!	!	!LO:TX:a:t=P:problem=mixed beam	!	!	!	!	!	!	!	!	!	!	!	!
8D\L	3	8f#/L	.	16dd\LL	.	(>8D\L	e-	8A/L	e-	.	8f#\L	e-	4.dd\	e-	4f#/	4dd\
.	.	.	.	16d/	.	.	.	.	.	.	.	.	.	.	.	.
8E\	2	8g/	.	16dd\	.	8E\J)	.	8G/	.	.	8g\	.	.	.	.	.
.	.	.	.	16d/	.	.	.	.	.	.	.	.	.	.	.	.
8F#\J	6	8a/J	.	16dd\	.	8F#\	-lei-	8F#/J	.	.	8a\J	.	.	.	8r	8r
.	.	.	.	16d/JJ	.	.	.	.	.	.	.	.	.	.	.	.
!	!	!	!	!	!	!	!	!LO:SIC:custos 8B:v	!	!	!	!	!	!	!	!
!	!	!	!	!	!	!	!	!LO:LB:g=original	!	!	!	!	!	!	!	!
=69	=69	=69	=69	=69	=69	=69	=69	=69	=69	=69	=69	=69	=69	=69	=69	=69
!	!	!	!	!LO:TX:a:t=P:problem=mixed beam	!	!	!	!	!	!	!	!	!	!	!	!
8G\L	.	8b/L	.	16dd\LL	.	8G\	-son	8B/L	.	.	8d\L	.	4.dd\	-lei-	8dd\L	8dd\L
.	.	.	.	16d/	.	.	.	.	.	.	.	.	.	.	.	.
8cn\	.	8f#/	.	16dd\	.	8cn\	Ky-	8A/	.	.	8f#\	.	.	.	16dd\L	16dd\L
.	.	.	.	16d/	.	.	.	.	.	.	.	.	.	.	16dd\	16dd\
8B\J	6	8g/J	.	16dd\	.	8B\	-ri-	8G/J	.	.	8g\J	.	.	.	16dd\	16dd\
.	.	.	.	16d/JJ	.	.	.	.	.	.	.	.	.	.	16dd\JJ	16dd\JJ
=70	=70	=70	=70	=70	=70	=70	=70	=70	=70	=70	=70	=70	=70	=70	=70	=70
!	!	!	!	!LO:TX:a:t=P:problem=mixed beam	!	!	!	!	!	!	!	!	!	!	!	!
8E\L	#	8g#X/L	.	16ee\LL	.	(>8E\	-e-	8B\L	.	.	8g#X\L	.	4.ee\	.	4ee\	4ee\
.	.	.	.	16e/	.	.	.	.	.	.	.	.	.	.	.	.
8F#\	2	8a/	.	16ee\	.	8F#\	.	8A\	.	.	8a\	.	.	.	.	.
.	.	.	.	16e/	.	.	.	.	.	.	.	.	.	.	.	.
8G\J	6	8b/J	.	16ee\	.	8G#X\)	.	8G#X\J	.	.	8b\J	.	.	.	8r	8r
.	.	.	.	16e/JJ	.	.	.	.	.	.	.	.	.	.	.	.
!	!	!	!	!LO:LB:g=original	!	!	!	!	!	!	!	!	!	!	!	!
=71	=71	=71	=71	=71	=71	=71	=71	=71	=71	=71	=71	=71	=71	=71	=71	=71
!	!	!	!	!LO:TX:a:t=P:problem=mixed beam	!	!	!	!	!	!	!	!	!	!	!	!
8A\L	#	8cc#X/L	.	16ee\LL	.	8A\L	.	8c#\L	.	.	8e\L	.	4.ee\	.	8ee\L	8ee\L
.	.	.	.	16e/	.	.	.	.	.	.	.	.	.	.	.	.
8d\	.	8g#X/	.	16ee\	.	8d\	.	8B\	.	.	8g#X\	.	.	.	16ee\L	16ee\L
.	.	.	.	16e/	.	.	.	.	.	.	.	.	.	.	16ee\	16ee\
8c#X\J	6	8a/J	.	16ee\	.	8c#X\J	.	8A\J	.	.	8a\J	.	.	.	16ee\	16ee\
.	.	.	.	16e/JJ	.	.	.	.	.	.	.	.	.	.	16ee\JJ	16ee\JJ
!LO:LB:g=original	!	!	!	!	!	!	!	!	!	!	!	!	!	!	!	!
=72	=72	=72	=72	=72	=72	=72	=72	=72	=72	=72	=72	=72	=72	=72	=72	=72
!	!	!	!	!LO:TX:a:t=P:problem=mixed beam	!	!	!	!	!	!	!	!	!	!	!	!
!	!	!	!	!	!	!	!	!	!	!	!LO:SIC:l:s=-lei-:v	!	!	!	!	!
8AA/L	.	8cc#\L	.	16aa\LL	.	8A\	.	8e\L	.	.	4.a\	.	8cc#\L	.	4ee\	4ee\
.	.	.	.	16a/	.	.	.	.	.	.	.	.	.	.	.	.
8BB/	2	8dd\	.	16aa\	.	8B\	-lei-	8d\	.	.	.	.	8dd\	.	.	.
.	.	.	.	16a/	.	.	.	.	.	.	.	.	.	.	.	.
8C#/J	6	8ee\J	.	16aa\	.	8c#\	-son	8c#\J	.	.	.	.	8ee\J	.	8r	8r
.	.	.	.	16a/JJ	.	.	.	.	.	.	.	.	.	.	.	.
!	!	!LO:LB:g=original	!	!	!	!	!	!	!	!	!	!	!LO:LB:g=original	!	!	!
=73	=73	=73	=73	=73	=73	=73	=73	=73	=73	=73	=73	=73	=73	=73	=73	=73
!	!	!	!	!LO:TX:a:t=P:problem=mixed beam	!	!	!	!	!	!	!	!	!	!	!	!
8D\L	.	8ff#\L	.	16aa\LL	.	8D\	e-	8f#\L	-lei-	.	4.a\	.	(>8ff#\L	.	8dd\L	8ff#\L
.	.	.	.	16a/	.	.	.	.	.	.	.	.	.	.	.	.
8G\	4 2	8cc#\	.	16aa\	.	8G\	-lei-	8c#\J	.	.	.	.	8ee\J)	.	8ee\	8gg\
.	.	.	.	16a/	.	.	.	.	.	.	.	.	.	.	.	.
8F#\J	.	8dd\J	.	16aa\	.	8F#\	-son	8d\	-son	.	.	.	8dd\	-son	8ff#\J	8aa\J
.	.	.	.	16a/JJ	.	.	.	.	.	.	.	.	.	.	.	.
=74	=74	=74	=74	=74	=74	=74	=74	=74	=74	=74	=74	=74	=74	=74	=74	=74
!LO:TX:a:t=P:problem=mixed beam	!	!	!	!	!	!	!	!	!	!	!	!	!	!	!	!
8GG/L	.	8d/	.	4.b\	.	8G\	e-	(>4.d\	e-	.	4.g\	.	[>4.b\	e-	4dd\	4bb\
16G\L	3_	16b/LL	.	.	.	(>16G\LL	.	.	.	.	.	.	.	.	.	.
16F#\	.	16a/	.	.	.	16F#\	.	.	.	.	.	.	.	.	.	.
16E\	.	16g/	.	.	.	16E\	.	.	.	.	.	.	.	.	8r	8r
16D\JJ	X	16f#/JJ	.	.	.	16D\JJ)	.	.	.	.	.	.	.	.	.	.
=75	=75	=75	=75	=75	=75	=75	=75	=75	=75	=75	=75	=75	=75	=75	=75	=75
8C#/L	7	8e/L	.	4.ggn\	.	8C#/	-e-	[>4.e\)	.	.	4.g\	.	4.b\]	.	8r	8r
8E/	.	8c#/	.	.	.	8E/	-lei-	.	.	.	.	.	.	.	8gg\L	8bb\L
8C#/J	.	[<8e/J	.	.	.	8C#/	-son	.	.	.	.	.	.	.	8gg\J	8bb\J
!	!	!	!	!	!	!LO:LB:g=original	!	!	!	!	!LO:LB:g=original	!	!	!	!	!
=76	=76	=76	=76	=76	=76	=76	=76	=76	=76	=76	=76	=76	=76	=76	=76	=76
!LO:TX:a:t=P:problem=mixed beam	!	!	!	!	!	!	!	!	!	!	!	!	!	!	!	!
!	!	!	!	!	!	!	!	!	!	!	!	!	!LO:SIC:l:s=-lei-:v	!	!	!
8FF#/L	7	8e/L]	.	4.a/	.	8F#\	e-	4.e\]	.	.	4.f#\	.	[>4.a\	.	4ff#\	4aa\
16F#\L	.	16a/L	.	.	.	(>16F#\LL	.	.	.	.	.	.	.	.	.	.
16E\	.	16g/	.	.	.	16E\	.	.	.	.	.	.	.	.	.	.
16D\	.	16f#/	.	.	.	16D\	.	.	.	.	.	.	.	.	8r	8r
16C#\JJ	.	16e/JJ	.	.	.	16C#\JJ)	.	.	.	.	.	.	.	.	.	.
=77	=77	=77	=77	=77	=77	=77	=77	=77	=77	=77	=77	=77	=77	=77	=77	=77
8BB/L	7	8d/L	.	4.ff#\	.	8BB/	-e-	4.d\	.	.	4.f#\	.	4.a\]	.	8r	8r
8D/	.	8B/	.	.	.	8D/	-lei-	.	.	.	.	.	.	.	8ff#\L	8aa\L
8BB/J	.	8d/J	.	.	.	8BB/	-son	.	.	.	.	.	.	.	8ff#\J	8aa\J
=78	=78	=78	=78	=78	=78	=78	=78	=78	=78	=78	=78	=78	=78	=78	=78	=78
!LO:TX:a:t=P:problem=mixed beam	!	!	!	!	!	!	!	!	!	!	!	!	!	!	!	!
8EE/L	.	8d/L	.	4.g/	.	8E\L	e-	4.d\	.	.	4.e\	.	[>4.g\	.	4ee\	4gg\
16E\L	.	16g/L	.	.	.	16E\L	.	.	.	.	.	.	.	.	.	.
16D\	.	16f#/	.	.	.	16D\	.	.	.	.	.	.	.	.	.	.
16C#\	.	16e/	.	.	.	16C#\	.	.	.	.	.	.	.	.	8r	8r
16BB\JJ	.	16d/JJ	.	.	.	16BB\JJ	.	.	.	.	.	.	.	.	.	.
!	!	!	!	!	!	!	!	!LO:LB:g=original	!	!	!	!	!	!	!	!
=79	=79	=79	=79	=79	=79	=79	=79	=79	=79	=79	=79	=79	=79	=79	=79	=79
8AA/L	.	8c#/L	.	4.ee\	.	8BB/	.	4.c#\	-lei-	.	4.e\	.	4.g\]	.	8r	8r
8C#/	.	8A/	.	.	.	8C#/L	-lei-	.	.	.	.	.	.	.	8ee\L	8gg\L
8AA/J	.	8c#/J	.	.	.	8AA/J	.	.	.	.	.	.	.	.	8ee\J	8gg\J
!	!	!	!	!	!	!	!	!	!	!	!	!	!	!	!	!LO:LB:g=original
=80	=80	=80	=80	=80	=80	=80	=80	=80	=80	=80	=80	=80	=80	=80	=80	=80
!	!	!LO:TX:a:t=P:problem=mixed beam	!	!LO:TX:a:t=P:problem=mixed beam	!	!	!	!	!	!	!	!	!	!	!	!
[>4.D\	.	8d`>/L	.	8f#`>/L	.	4.D\	.	8A\	-son	.	8d\	-son	8f#/	-son	4dd\	4ff#\
.	.	(>8ff#\	.	(>8aa\	.	.	.	8r	.	.	(>8f#\L	e-	(>8a\L	e-	.	.
.	.	8gg\J)	.	8bb\J)	.	.	.	8r	.	.	8g\J)	.	8b\J)	.	8r	8r
=81	=81	=81	=81	=81	=81	=81	=81	=81	=81	=81	=81	=81	=81	=81	=81	=81
!	!	!	!	!	!	!	!	!	!	!	!	!	!	!	!	!LO:TX:a:t=P:problem=znak początku repetycji
4.D\_>	.	8ff#`>\L	.	8aa`>\L	.	4.D\	.	8A/	e-	.	4f#\	-lei-	8a\	-lei-	8ff#\L	8aa\L
.	.	(>8ff#\	.	(>8ddd\	.	.	.	8A/L	.	.	.	.	8dd\L	.	8ff#\	8gg\
!	!	!	!	!	!	!	!	!	!	!	!	!	!	!	!	!LO:TX:a:Bi:t=bis
.	.	8ee\J)	.	8ccc#\J)	.	.	.	8G/J	.	.	8e\	.	8cc#\J	.	8ee\J	8ff#\J
=82	=82	=82	=82	=82	=82	=82	=82	=82	=82	=82	=82	=82	=82	=82	=82	=82
!	!	!LO:TX:a:t=P:problem=mixed beam	!	!LO:TX:a:t=P:problem=mixed beam	!	!	!	!	!	!	!	!	!	!	!	!
4.D\_>	.	8ff#`>\L	.	8ddd`>\L	.	4.D\	.	4F#/	.	.	8f#\	-son	8dd\	-son	4dd\	4ff#\
.	.	(<8f#/	.	(<8a/	.	.	.	.	.	.	8a\L	.	16ff#\LL	.	.	.
.	.	.	.	.	.	.	.	.	.	.	.	.	16ee\J	e-	.	.
.	.	8g/J)	.	8b/J)	.	.	.	8B\	.	.	8g\J	.	8dd\J	.	8r	8r
!	!	!	!	!	!	!	!	!	!	!	!	!	!	!	!	!LO:TX:a:t=P:problem=znak końca repetycji
=83	=83	=83	=83	=83	=83	=83	=83	=83	=83	=83	=83	=83	=83	=83	=83	=83
*	*	*	*	*	*	*	*	*	*	*	*	*	*	*	*	*rep
!	!	!	!	!	!	!	!	!	!	!	!	!	!	!	!	!LO:TX:a:t=P:problem=powtórzenie taktów oznaczone znakami repetycji
!	!	!	!	!	!	!	!	!LO:TX:b:t=a	!	!	!	!	!	!	!	!
4.D\_>	.	8f#`</L	.	8a`>\L	.	4.D\	.	4A/	.	.	4f#\	.	4dd\	-lei-	8ff#\L	8aa\L
.	.	(<8f#/	.	(>8dd\	.	.	.	.	.	.	.	.	.	.	8ff#\	8gg\
.	.	8e/J)	.	8cc#\J)	.	.	.	8G/	.	.	8e\	.	8cc#\	.	8ee\J	8ff#\J
=84	=84	=84	=84	=84	=84	=84	=84	=84	=84	=84	=84	=84	=84	=84	=84	=84
8D\L]	.	4f#/	.	8dd\L	.	8D\	-son	4F#/	.	.	8f#\	.	8dd\	-son	4dd\	4ff#\
8d\	.	.	.	8ff#\	.	8d\	Ky-	.	.	.	8a\	Ky-	8ff#\	Ky-	.	.
8d\J	6	8ff#\	.	[>8bb\J	.	8d\	-ri-	8d\	.	.	8b\	-ri-	8ff#\	-ri-	8r	8r
*	*	*	*	*	*	*	*	*	*	*	*	*	*	*	*	*Xrep
!	!	!LO:LB:g=original	!	!LO:LB:g=original	!	!	!	!	!	!	!	!	!	!	!LO:LB:g=original	!
=85	=85	=85	=85	=85	=85	=85	=85	=85	=85	=85	=85	=85	=85	=85	=85	=85
!	!	!	!	!LO:TX:a:t=P:problem=w źródle brak zakończenia ligatury	!	!	!	!	!	!	!	!	!	!	!LO:TX:a:Bi:t=4	!LO:TX:a:Bi:t=4
8c#\L	7	8ee\L	.	8bb\L]	.	4.c#\	-e-	8e\L	.	.	4b\	-e	4ee\	-e	1.r	1.r
8c#\	.	8ee\	.	8gg#X\	.	.	.	8c#\	.	.	.	.	.	.	.	.
8c#\J	6	8ee\J	.	[>8aa\J	.	.	.	8A\J	.	.	8a\	e-	8ee\	e-	.	.
!LO:LB:g=original	!	!	!	!	!	!	!	!	!	!	!	!	!	!	!	!
=86	=86	=86	=86	=86	=86	=86	=86	=86	=86	=86	=86	=86	=86	=86	=86	=86
8B\L	7	8dd\L	.	8aa\L]	.	4.B\	.	8d\L	.	.	8a\	.	4.dd\	-lei-	.	.
!	!	!	!	!LO:SIC:s=8gg:v	!	!	!	!	!	!	!	!	!	!	!	!
8B\	.	8dd\	.	8ff#\	.	.	.	8G\	.	.	4g\	.	.	.	.	.
8B\J	6	8dd\J	.	[>8ggn\J	.	.	.	8B\J	.	.	.	.	.	.	.	.
!	!	!	!	!	!	!	!	!	!	!	!LO:SIC:custos g:v	!	!	!	!	!
!	!	!	!	!	!	!	!	!	!	!	!LO:LB:g=original	!	!	!	!	!
=87	=87	=87	=87	=87	=87	=87	=87	=87	=87	=87	=87	=87	=87	=87	=87	=87
8A\L	7	8cc#\L	.	8gg\L]	.	4.A\	.	8c#\L	.	.	8g\	.	4.cc#\	.	.	.
8A\	.	8cc#\	.	8ee#X\	.	.	.	8A\	.	.	[<4f#\	.	.	.	.	.
8A\J	6	8cc#\J	.	[>8ff#\J	.	.	.	8F#\J	.	.	.	.	.	.	.	.
!	!	!	!	!	!	!	!	!LO:SIC:custos 8B:v	!	!	!	!	!	!	!	!
!	!	!	!	!	!	!	!	!LO:LB:g=original	!	!	!	!	!	!	!	!
=88	=88	=88	=88	=88	=88	=88	=88	=88	=88	=88	=88	=88	=88	=88	=88	=88
8G\L	.	8b/L	.	8ff#\L]	.	4.G\	.	8B\L	.	.	8f#\]	.	4.b\	.	.	.
8G\	.	8b/	.	8bb\	.	.	.	8e\	.	.	4e\	.	.	.	.	.
8G\J	.	8b/J	.	8dd\J	.	.	.	8g\J	.	.	.	.	.	.	.	.
!	!	!	!	!	!	!	!	!	!	!	!	!	!LO:LB:g=original	!	!	!
=89	=89	=89	=89	=89	=89	=89	=89	=89	=89	=89	=89	=89	=89	=89	=89	=89
8G\L	2	8a/L	.	8cc#\L	.	(>8G\L	.	8c#\L	.	.	(>8e\L	.	4.a\	-son	8r	8r
8F#\	6	8a/	.	8dd\	.	8F#\	.	8d\	.	.	8f#\J)	.	.	.	8r	8r
8E\J	6	8a/J	.	8ggn\J	.	8E\J)	.	8c#\J	.	.	8g\	.	.	.	8ee\	8gg\
!	!	!	!	!	!	!LO:LB:g=original	!	!	!	!	!	!	!	!	!	!
=90	=90	=90	=90	=90	=90	=90	=90	=90	=90	=90	=90	=90	=90	=90	=90	=90
!LO:TX:a:t=P:problem=mixed beam	!	!	!	!	!	!	!	!	!	!	!	!	!	!	!	!
!	!	!	!	!	!	!LO:SIC:l:s=e-:v	!	!	!	!	!	!	!	!	!	!
8D\L	.	8a/	.	24ff#\LL	.	8D\	.	4A\	-lei-	.	8f#\	.	8dd\	e-	8dd\	8ff#\
.	.	.	.	24ee\	.	.	.	.	.	.	.	.	.	.	.	.
.	.	.	.	24dd\JJ	.	.	.	.	.	.	.	.	.	.	.	.
.	.	.	.	.	.	.	.	.	.	.	8qqf#/	.	.	.	.	.
!	!	!	!	!	!	!LO:TX:a:t=P:problem=mixed beam	!	!	!	!	!	!	!	!	!	!
!	!	!	!	!	!	!	!	!	!	!	!	!	!LO:SIC:s:8cc#:v	!	!	!
8A\	.	4cc#\	.	4eeT>\	.	8A\L	-lei-	.	.	.	4e\	-lei-	8dd\L	-lei-	4a/	4ee\
8AA/J	.	.	.	.	.	8AA/J	.	8A\	.	.	.	.	8cc#\J	.	.	.
*	*	*	*	*tuplet	*	*	*	*	*	*	*	*	*	*	*	*
=91	=91	=91	=91	=91	=91	=91	=91	=91	=91	=91	=91	=91	=91	=91	=91	=91
!	!	!LO:TX:a:t=P:problem=mixed beam	!	!	!	!	!	!	!	!	!	!	!	!	!	!LO:TX:a:t=P:problem=mixed beam
8D\L	.	8dd\L	.	(>8dd\L	.	4.D\	-son	8A\	-son	.	8f#\	-son	8dd\	-son	8f#/L	8dd\L
8D\	.	8f#/	.	8a\)	.	.	.	8d\	e-	.	8f#\	Ky-	8a\	Ky-	8d/	8d/
8D\J	.	8a/J	.	8ccn`>\J	.	.	.	8d\	-lei-	.	8a\	-rie	8ccn\	-ri-	8d/J	8d/J
=92	=92	=92	=92	=92	=92	=92	=92	=92	=92	=92	=92	=92	=92	=92	=92	=92
8D\L	6 4	8g/L	.	(<8b/L	.	4.D\	e-	8d\	-son	.	8g\	.	8b\	-e	8d/L	8d/L
8D\	5 2	8f#/	.	8a/)	.	.	.	8r	.	.	8f#\L	e-	8a\L	e-	8d/	8d/
8D\J	.	8a/J	.	8ccn`</J	.	.	.	8d\	e-	.	8a\J	.	8ccn\J	.	8d/J	8d/J
!	!	!LO:TX:a:t=P:problem=w źródle skreślony takt	!	!	!	!	!	!	!	!	!	!	!	!	!	!
=93	=93	=93	=93	=93	=93	=93	=93	=93	=93	=93	=93	=93	=93	=93	=93	=93
!	!	!LO:TX:a:t=P:problem=pominięty fragment	!	!LO:TX:a:t=P:problem=pominięty fragment	!	!	!	!	!	!	!	!	!	!	!	!
!LO:TX:a:t=P:problem=w źródle jedna kreska dal cyfrowania '6_ 4_'	!	!	!	!	!	!	!	!	!	!	!	!	!	!	!	!
[>4.D\	6_ 4_	4.ryy	.	4.ryy	.	4.D\	.	4.d\	.	.	4.g\	-lei-	[>4.b\	-lei-	8d/L	8d/L
.	.	.	.	.	.	.	.	.	.	.	.	.	.	.	8d/	8d/
.	.	.	.	.	.	.	.	.	.	.	.	.	.	.	8d/J	8d/J
=94	=94	=94	=94	=94	=94	=94	=94	=94	=94	=94	=94	=94	=94	=94	=94	=94
4.D\]	.	4.ryy	.	4.ryy	.	4.D\	.	4.d\	.	.	4.g\	.	4.b\]	.	8d/L	8d/L
.	.	.	.	.	.	.	.	.	.	.	.	.	.	.	8d/	8d/
.	.	.	.	.	.	.	.	.	.	.	.	.	.	.	8d/J	8d/J
=95	=95	=95	=95	=95	=95	=95	=95	=95	=95	=95	=95	=95	=95	=95	=95	=95
!	!	!	!	!	!	!	!	!	!	!	!LO:SIC:s=4.g:v	!	!LO:SIC:s=4.b:v	!	!	!
4.D\	5 X	(<4.g/	.	4.b/	.	4.D\	-lei-	4.d\	-lei-	.	4.f#\	.	4.a\	.	4.d/	4.d/
=96	=96	=96	=96	=96	=96	=96	=96	=96	=96	=96	=96	=96	=96	=96	=96	=96
!	!	!	!	!	!	!	!	!	!	!	!LO:TX:a:t=P:problem=w źródle fermata nad nutą bez kropki	!	!	!	!	!LO:TX:a:t=P:problem=w źródle fermaty bez kropek; możliwe graficznie ozdobne zakończenie części
4D\	.	4.f#;</)	.	4.a;>/	.	4.D;>\	-son	4.d\	-son	.	4.f#;>\	-son	4.a;>\	-son	4.d;;/	4.d;;/
8r	.	.	.	.	.	.	.	.	.	.	.	.	.	.	.	.
!	!	!LO:TX:a:t=P:problem=w źródle skreślony takt	!	!	!	!	!	!	!	!	!	!	!	!	!	!
!	!	!	!	!	!	!	!	!	!	!	!	!	!	!	!LO:TX:a:t=P:problem=w źródle ozdobna kreska końcowa	!LO:TX:a:t=P:problem=w źródle ozdobna kreska końcowa
!	!	!	!	!	!	!LO:TX:a:t=P:problem=w źródle ozdobna kreska końcowa	!	!LO:TX:a:t=P:problem=w źródle ozdobna kreska końcowa	!	!	!LO:TX:a:t=P:problem=w źródle ozdobna kreska końcowa	!	!LO:TX:a:t=P:problem=w źródle ozdobna kreska końcowa	!	!	!
!LO:TX:a:t=P:problem=w źródle ozdobna kreska końcowa	!	!LO:TX:a:t=P:problem=w źródle ozdobna kreska końcowa	!	!LO:TX:a:t=P:problem=w źródle ozdobna kreska końcowa	!	!	!	!	!	!	!	!	!	!	!	!
==	==	==	==	==	==	==	==	==	==	==	==	==	==	==	==	==
*-	*-	*-	*-	*-	*-	*-	*-	*-	*-	*-	*-	*-	*-	*-	*-	*-
!!title: @{OTL};
!!!RDF**kern: > = above
!!!RDF**kern: < = below
!!!RDF**dynam: f = "for", fontstyle="bold-italic"
!!!RDF**dynam: p = "po", fontstyle="bold-italic"
!!!RDF**kern: i = editorial accidental
!!!EED: Wojciech Jakubiak-Danek
!!!EST: 2020-11-18
!!!URL-scan: http://bc.bdsandomierz.pl/dlibra/publication/1511/edition/1479/content
!!!ONB-nifc: UWAGA: części Mszy: Kyrie, Gloria, Credo, Sanctus, Benedictus, Agnus
!!!AIN: 1 alto 3 empty 1 organ 1 tenor 2 violn 1 vox
!!!ENC: Andrzej Gręziak
!!!END: 2020-05-25
!!!RDF**kern: | = vertical stroke
